;FLAVOR:Marlin
;TIME:6666
;Filament used: 0m
;Layer height: 0.1

;Generated with Cura_SteamEngine master
M190 S60
M104 S215
M109 S215
M82 ; absolute extrusion mode
G21 ;metric values
G90 ;absolute positioning
M82 ;set extruder to absolute mode
M107 ;start with the fan off
G28 X0 Y0 ;move X/Y to min endstops
G28 Z0 ;move Z to min endstops
G1 Z15.0 F9000 ;move the platform down 15mm
G92 E0 ;zero the extruded length
G1 F200 E3 ;extrude 3mm of feed stock
G92 E0 ;zero the extruded length again
G1 F9000
;Put printing message on LCD screen
M117 Printing...
;LAYER_COUNT:68
;LAYER:0
M107
G0 F3600 X85.01 Y77.989 Z0.3
;TYPE:SKIRT
G1 F1800 X85.571 Y77.433 E0.03941
G1 X86.185 Y76.937 E0.07878
G1 X86.846 Y76.506 E0.11815
G1 X87.529 Y76.152 E0.15653
G1 X87.844 Y76.008 E0.17381
G1 X88.578 Y75.717 E0.2132
G1 X89.338 Y75.501 E0.25262
G1 X90.115 Y75.363 E0.29199
G1 X90.903 Y75.304 E0.33142
G1 X91.373 Y75.307 E0.35487
G1 X91.754 Y75.321 E0.37389
G1 X92.541 Y75.39 E0.4133
G1 X93.317 Y75.538 E0.45271
G1 X94.073 Y75.764 E0.49208
G1 X94.804 Y76.065 E0.53152
G1 X95.83 Y76.65 E0.59044
G1 X96.248 Y76.932 E0.6156
G1 X96.88 Y77.406 E0.65501
G1 X97.46 Y77.942 E0.69441
G1 X97.983 Y78.533 E0.73379
G1 X98.444 Y79.175 E0.77322
G1 X98.698 Y79.599 E0.79788
G1 X100.476 Y82.787 E0.97999
G1 X102.354 Y79.732 E1.1589
G1 X102.801 Y79.081 E1.1983
G1 X103.312 Y78.479 E1.23769
G1 X103.881 Y77.931 E1.27711
G1 X104.502 Y77.444 E1.31648
G1 X105.295 Y76.953 E1.36301
G1 X105.736 Y76.715 E1.38801
G1 X106.449 Y76.375 E1.42742
G1 X107.192 Y76.11 E1.46678
G1 X107.959 Y75.921 E1.50619
G1 X108.741 Y75.81 E1.54559
G1 X109.53 Y75.78 E1.58498
G1 X110.611 Y75.867 E1.63909
G1 X111.118 Y75.944 E1.66467
G1 X111.892 Y76.102 E1.70409
G1 X112.646 Y76.338 E1.7435
G1 X113.372 Y76.648 E1.78289
G1 X114.063 Y77.03 E1.82228
G1 X114.712 Y77.48 E1.86168
G1 X115.171 Y77.864 E1.89154
G1 X115.477 Y78.14 E1.91209
G1 X116.036 Y78.698 E1.9515
G1 X116.536 Y79.309 E1.99089
G1 X116.971 Y79.968 E2.03028
G1 X117.337 Y80.668 E2.06969
G1 X117.631 Y81.401 E2.10909
G1 X117.802 Y81.968 E2.13864
G1 X117.929 Y82.456 E2.1638
G1 X118.089 Y83.229 E2.20318
G1 X118.169 Y84.014 E2.24255
G1 X118.171 Y84.804 E2.28196
G1 X118.092 Y85.59 E2.32137
G1 X117.968 Y86.227 E2.35375
G1 X117.908 Y86.479 E2.36667
G1 X117.686 Y87.237 E2.40608
G1 X117.389 Y87.968 E2.44544
G1 X117.016 Y88.672 E2.48519
G1 X115.144 Y91.806 E2.66731
G1 X118.729 Y91.905 E2.84624
G1 X119.516 Y91.967 E2.88562
G1 X120.293 Y92.108 E2.92502
G1 X121.052 Y92.327 E2.96443
G1 X121.785 Y92.621 E3.00383
G1 X122.597 Y93.056 E3.04979
G1 X123.025 Y93.319 E3.07485
G1 X123.676 Y93.766 E3.11425
G1 X124.278 Y94.277 E3.15365
G1 X124.826 Y94.846 E3.19306
G1 X125.313 Y95.467 E3.23243
G1 X125.736 Y96.134 E3.27184
G1 X126.106 Y96.882 E3.31347
G1 X126.288 Y97.305 E3.33644
G1 X126.563 Y98.045 E3.37583
G1 X126.762 Y98.81 E3.41527
G1 X126.882 Y99.59 E3.45464
G1 X126.923 Y100.379 E3.49405
G1 X126.884 Y101.168 E3.53347
G1 X126.807 Y101.73 E3.56177
G1 X126.727 Y102.188 E3.58496
G1 X126.552 Y102.958 E3.62436
G1 X126.3 Y103.707 E3.66378
G1 X125.973 Y104.426 E3.70319
G1 X125.576 Y105.108 E3.74256
G1 X125.111 Y105.747 E3.78199
G1 X124.52 Y106.4 E3.82593
G1 X124.162 Y106.753 E3.85101
G1 X123.572 Y107.278 E3.89041
G1 X122.932 Y107.741 E3.92982
G1 X122.249 Y108.137 E3.96921
G1 X121.529 Y108.462 E4.00862
G1 X120.91 Y108.675 E4.04128
G1 X120.658 Y108.75 E4.0544
G1 X119.891 Y108.937 E4.09378
G1 X119.108 Y109.045 E4.13322
G1 X118.319 Y109.073 E4.17261
G1 X114.669 Y109.019 E4.35472
G1 X116.373 Y112.17 E4.53344
G1 X116.714 Y112.882 E4.57283
G1 X116.98 Y113.626 E4.61225
G1 X117.17 Y114.392 E4.65162
G1 X117.281 Y115.174 E4.69103
G1 X117.311 Y116.066 E4.73555
G1 X117.299 Y116.571 E4.76076
G1 X117.24 Y117.359 E4.80018
G1 X117.102 Y118.136 E4.83955
G1 X116.886 Y118.896 E4.87897
G1 X116.595 Y119.63 E4.91836
G1 X116.23 Y120.33 E4.95775
G1 X115.765 Y121.033 E4.9998
G1 X115.492 Y121.401 E5.02266
G1 X114.99 Y122.011 E5.06207
G1 X114.429 Y122.567 E5.10148
G1 X113.815 Y123.063 E5.14086
G1 X113.154 Y123.494 E5.18022
G1 X112.471 Y123.848 E5.2186
G1 X112.156 Y123.992 E5.23588
G1 X111.422 Y124.283 E5.27528
G1 X110.662 Y124.499 E5.31469
G1 X109.885 Y124.637 E5.35407
G1 X109.097 Y124.696 E5.39349
G1 X108.627 Y124.693 E5.41694
G1 X108.246 Y124.679 E5.43596
G1 X107.459 Y124.61 E5.47537
G1 X106.683 Y124.462 E5.51479
G1 X105.927 Y124.236 E5.55415
G1 X105.196 Y123.935 E5.59359
G1 X104.17 Y123.35 E5.65252
G1 X103.752 Y123.068 E5.67767
G1 X103.12 Y122.594 E5.71709
G1 X102.54 Y122.058 E5.75649
G1 X102.017 Y121.467 E5.79586
G1 X101.556 Y120.825 E5.83529
G1 X101.302 Y120.401 E5.85995
G1 X99.524 Y117.214 E6.04202
G1 X97.647 Y120.267 E6.22082
G1 X97.2 Y120.918 E6.26022
G1 X96.689 Y121.52 E6.29961
G1 X96.12 Y122.068 E6.33902
G1 X95.499 Y122.555 E6.3784
G1 X94.712 Y123.043 E6.42459
G1 X94.27 Y123.282 E6.44966
G1 X93.557 Y123.622 E6.48907
G1 X92.814 Y123.888 E6.52844
G1 X92.047 Y124.078 E6.56787
G1 X91.265 Y124.189 E6.60727
G1 X90.476 Y124.221 E6.64667
G1 X89.389 Y124.133 E6.70108
G1 X88.882 Y124.056 E6.72666
G1 X88.108 Y123.898 E6.76607
G1 X87.354 Y123.662 E6.80549
G1 X86.628 Y123.352 E6.84487
G1 X85.937 Y122.97 E6.88426
G1 X85.288 Y122.52 E6.92366
G1 X84.816 Y122.125 E6.95437
G1 X84.508 Y121.846 E6.9751
G1 X83.951 Y121.287 E7.01447
G1 X83.452 Y120.674 E7.05391
G1 X83.019 Y120.014 E7.09329
G1 X82.654 Y119.314 E7.13268
G1 X82.362 Y118.58 E7.17209
G1 X82.192 Y118.012 E7.20167
G1 X82.067 Y117.527 E7.22665
G1 X81.909 Y116.753 E7.26606
G1 X81.83 Y115.967 E7.30548
G1 X81.83 Y115.178 E7.34484
G1 X81.911 Y114.392 E7.38426
G1 X82.032 Y113.773 E7.41573
G1 X82.092 Y113.521 E7.42865
G1 X82.314 Y112.763 E7.46806
G1 X82.611 Y112.032 E7.50742
G1 X82.984 Y111.328 E7.54717
G1 X84.856 Y108.194 E7.72929
G1 X81.271 Y108.095 E7.90822
G1 X80.484 Y108.033 E7.9476
G1 X79.707 Y107.892 E7.987
G1 X78.948 Y107.673 E8.02641
G1 X78.215 Y107.379 E8.06582
G1 X77.403 Y106.944 E8.11177
G1 X76.975 Y106.681 E8.13684
G1 X76.324 Y106.234 E8.17623
G1 X75.722 Y105.723 E8.21563
G1 X75.174 Y105.154 E8.25504
G1 X74.687 Y104.533 E8.29441
G1 X74.264 Y103.866 E8.33382
G1 X73.894 Y103.118 E8.37545
G1 X73.712 Y102.695 E8.39842
G1 X73.437 Y101.955 E8.43781
G1 X73.238 Y101.19 E8.47725
G1 X73.118 Y100.41 E8.51662
G1 X73.077 Y99.621 E8.55604
G1 X73.116 Y98.832 E8.59545
G1 X73.193 Y98.27 E8.62375
G1 X73.273 Y97.812 E8.64694
G1 X73.448 Y97.042 E8.68634
G1 X73.7 Y96.293 E8.72576
G1 X74.027 Y95.574 E8.76517
G1 X74.424 Y94.892 E8.80454
G1 X74.889 Y94.253 E8.84397
G1 X75.48 Y93.6 E8.88791
G1 X75.838 Y93.247 E8.91299
G1 X76.428 Y92.722 E8.95239
G1 X77.068 Y92.259 E8.9918
G1 X77.751 Y91.863 E9.03119
G1 X78.471 Y91.538 E9.0706
G1 X79.09 Y91.325 E9.10326
G1 X79.342 Y91.25 E9.11638
G1 X80.109 Y91.063 E9.15576
G1 X80.892 Y90.955 E9.1952
G1 X81.681 Y90.927 E9.23459
G1 X85.331 Y90.981 E9.4167
G1 X83.627 Y87.83 E9.59542
G1 X83.286 Y87.118 E9.63481
G1 X83.02 Y86.374 E9.67423
G1 X82.83 Y85.608 E9.7136
G1 X82.719 Y84.826 E9.75301
G1 X82.689 Y83.934 E9.79753
G1 X82.701 Y83.429 E9.82274
G1 X82.76 Y82.641 E9.86216
G1 X82.898 Y81.864 E9.90153
G1 X83.114 Y81.104 E9.94095
G1 X83.405 Y80.37 E9.98034
G1 X83.77 Y79.67 E10.01973
G1 X84.235 Y78.967 E10.06178
G1 X84.508 Y78.599 E10.08464
G1 X85.01 Y77.989 E10.12405
G0 F3600 X85.319 Y78.244
G1 F1800 X85.867 Y77.705 E10.1624
G1 X86.469 Y77.226 E10.20078
G1 X87.117 Y76.812 E10.23914
G1 X87.695 Y76.516 E10.27154
G1 X88.01 Y76.372 E10.28882
G1 X88.726 Y76.089 E10.32723
G1 X89.466 Y75.882 E10.36557
G1 X90.225 Y75.752 E10.40399
G1 X91.359 Y75.707 E10.46061
G1 X91.74 Y75.721 E10.47963
G1 X92.506 Y75.789 E10.51799
G1 X93.261 Y75.936 E10.55637
G1 X93.996 Y76.161 E10.59472
G1 X94.705 Y76.461 E10.63313
G1 X95.607 Y76.981 E10.68507
G1 X96.025 Y77.263 E10.71023
G1 X96.639 Y77.726 E10.74859
G1 X97.202 Y78.25 E10.78696
G1 X97.708 Y78.83 E10.82536
G1 X98.15 Y79.459 E10.86372
G1 X98.349 Y79.794 E10.88316
G1 X100.41 Y83.49 E11.09428
G1 X100.458 Y83.579 E11.09933
G1 X102.695 Y79.941 E11.3124
G1 X103.131 Y79.308 E11.35074
G1 X103.631 Y78.723 E11.38914
G1 X104.189 Y78.194 E11.4275
G1 X104.799 Y77.725 E11.46588
G1 X105.484 Y77.305 E11.50597
G1 X105.925 Y77.067 E11.53097
G1 X106.62 Y76.737 E11.56936
G1 X107.346 Y76.481 E11.60776
G1 X108.094 Y76.302 E11.64613
G1 X108.856 Y76.202 E11.68448
G1 X109.625 Y76.181 E11.72286
G1 X110.551 Y76.263 E11.76924
G1 X111.058 Y76.34 E11.79482
G1 X111.812 Y76.495 E11.83322
G1 X112.545 Y76.727 E11.87158
G1 X113.25 Y77.034 E11.90994
G1 X113.92 Y77.413 E11.94835
G1 X114.546 Y77.859 E11.98669
G1 X114.903 Y78.161 E12.01002
G1 X115.209 Y78.437 E12.03058
G1 X115.753 Y78.981 E12.06896
G1 X116.237 Y79.579 E12.10735
G1 X116.657 Y80.223 E12.1457
G1 X117.007 Y80.908 E12.18408
G1 X117.284 Y81.626 E12.22248
G1 X117.414 Y82.068 E12.24546
G1 X117.541 Y82.556 E12.27062
G1 X117.696 Y83.31 E12.30902
G1 X117.772 Y84.075 E12.34738
G1 X117.768 Y84.844 E12.38574
G1 X117.684 Y85.609 E12.42414
G1 X117.579 Y86.134 E12.45085
G1 X117.519 Y86.386 E12.46377
G1 X117.302 Y87.124 E12.50215
G1 X117.01 Y87.835 E12.5405
G1 X116.673 Y88.467 E12.57623
G1 X114.503 Y92.1 E12.78735
G1 X114.45 Y92.187 E12.79244
G1 X118.718 Y92.305 E13.00545
G1 X119.484 Y92.366 E13.04379
G1 X120.241 Y92.507 E13.0822
G1 X120.978 Y92.725 E13.12055
G1 X121.689 Y93.018 E13.15891
G1 X122.387 Y93.397 E13.19854
G1 X122.815 Y93.66 E13.2236
G1 X123.449 Y94.096 E13.26199
G1 X124.034 Y94.596 E13.30038
G1 X124.563 Y95.154 E13.33874
G1 X125.032 Y95.763 E13.37709
G1 X125.436 Y96.418 E13.41548
G1 X125.739 Y97.04 E13.45
G1 X125.921 Y97.463 E13.47298
G1 X126.187 Y98.185 E13.51136
G1 X126.378 Y98.93 E13.54973
G1 X126.49 Y99.691 E13.58811
G1 X126.523 Y100.459 E13.62646
G1 X126.475 Y101.227 E13.66485
G1 X126.413 Y101.661 E13.68672
G1 X126.333 Y102.119 E13.70992
G1 X126.161 Y102.869 E13.74831
G1 X125.913 Y103.597 E13.78668
G1 X125.59 Y104.295 E13.82505
G1 X125.197 Y104.956 E13.86341
G1 X124.737 Y105.573 E13.90181
G1 X124.239 Y106.115 E13.93853
G1 X123.881 Y106.468 E13.96361
G1 X123.306 Y106.979 E14.00199
G1 X122.681 Y107.427 E14.04036
G1 X122.013 Y107.809 E14.07875
G1 X121.309 Y108.118 E14.11711
G1 X120.796 Y108.292 E14.14413
G1 X120.544 Y108.367 E14.15725
G1 X119.796 Y108.547 E14.19563
G1 X119.034 Y108.65 E14.23399
G1 X118.325 Y108.673 E14.26938
G1 X114.095 Y108.611 E14.48044
G1 X113.993 Y108.609 E14.48553
G1 X116.022 Y112.36 E14.69829
G1 X116.352 Y113.055 E14.73668
G1 X116.608 Y113.78 E14.77504
G1 X116.788 Y114.528 E14.81342
G1 X116.889 Y115.29 E14.85177
G1 X116.911 Y116.057 E14.89005
G1 X116.899 Y116.562 E14.91525
G1 X116.841 Y117.329 E14.95363
G1 X116.703 Y118.086 E14.99202
G1 X116.488 Y118.824 E15.03037
G1 X116.197 Y119.536 E15.06874
G1 X115.834 Y120.214 E15.10711
G1 X115.444 Y120.795 E15.14202
G1 X115.171 Y121.163 E15.16488
G1 X114.681 Y121.756 E15.20326
G1 X114.133 Y122.295 E15.24161
G1 X113.531 Y122.774 E15.27999
G1 X112.883 Y123.188 E15.31835
G1 X112.305 Y123.484 E15.35075
G1 X111.99 Y123.628 E15.36803
G1 X111.274 Y123.911 E15.40644
G1 X110.534 Y124.118 E15.44478
G1 X109.775 Y124.248 E15.48319
G1 X108.641 Y124.293 E15.53981
G1 X108.26 Y124.279 E15.55883
G1 X107.494 Y124.211 E15.5972
G1 X106.739 Y124.064 E15.63558
G1 X106.004 Y123.839 E15.67392
G1 X105.295 Y123.539 E15.71233
G1 X104.393 Y123.019 E15.76428
G1 X103.975 Y122.737 E15.78943
G1 X103.361 Y122.274 E15.8278
G1 X102.798 Y121.75 E15.86617
G1 X102.292 Y121.17 E15.90457
G1 X101.85 Y120.541 E15.94292
G1 X101.651 Y120.207 E15.96232
G1 X99.589 Y116.51 E16.17351
G1 X99.541 Y116.422 E16.17851
G1 X97.306 Y120.058 E16.39145
G1 X96.87 Y120.691 E16.42979
G1 X96.37 Y121.276 E16.46819
G1 X95.812 Y121.805 E16.50655
G1 X95.203 Y122.274 E16.5449
G1 X94.522 Y122.691 E16.58473
G1 X94.08 Y122.93 E16.6098
G1 X93.385 Y123.261 E16.64821
G1 X92.66 Y123.517 E16.68657
G1 X91.912 Y123.696 E16.72494
G1 X91.149 Y123.797 E16.76334
G1 X90.381 Y123.819 E16.80167
G1 X89.449 Y123.737 E16.84835
G1 X88.942 Y123.66 E16.87393
G1 X88.188 Y123.505 E16.91233
G1 X87.455 Y123.273 E16.95069
G1 X86.75 Y122.966 E16.98905
G1 X86.08 Y122.587 E17.02746
G1 X85.454 Y122.141 E17.06581
G1 X85.085 Y121.828 E17.08995
G1 X84.777 Y121.549 E17.11068
G1 X84.235 Y121.004 E17.14903
G1 X83.752 Y120.405 E17.18741
G1 X83.333 Y119.76 E17.22579
G1 X82.985 Y119.074 E17.26416
G1 X82.709 Y118.356 E17.30254
G1 X82.579 Y117.912 E17.32562
G1 X82.454 Y117.427 E17.35061
G1 X82.301 Y116.673 E17.38899
G1 X82.227 Y115.907 E17.42739
G1 X82.233 Y115.138 E17.46575
G1 X82.319 Y114.374 E17.50411
G1 X82.421 Y113.866 E17.52996
G1 X82.481 Y113.614 E17.54288
G1 X82.698 Y112.876 E17.58126
G1 X82.99 Y112.165 E17.61961
G1 X83.327 Y111.533 E17.65534
G1 X85.497 Y107.9 E17.86646
G1 X85.55 Y107.813 E17.87155
G1 X81.282 Y107.695 E18.08456
G1 X80.516 Y107.634 E18.1229
G1 X79.759 Y107.493 E18.16131
G1 X79.022 Y107.275 E18.19966
G1 X78.311 Y106.982 E18.23802
G1 X77.613 Y106.603 E18.27765
G1 X77.185 Y106.34 E18.30271
G1 X76.551 Y105.904 E18.3411
G1 X75.966 Y105.404 E18.37949
G1 X75.437 Y104.846 E18.41785
G1 X74.968 Y104.237 E18.4562
G1 X74.564 Y103.582 E18.4946
G1 X74.261 Y102.96 E18.52911
G1 X74.079 Y102.537 E18.55209
G1 X73.813 Y101.815 E18.59047
G1 X73.622 Y101.07 E18.62885
G1 X73.51 Y100.309 E18.66722
G1 X73.477 Y99.541 E18.70557
G1 X73.525 Y98.773 E18.74396
G1 X73.587 Y98.339 E18.76583
G1 X73.667 Y97.881 E18.78903
G1 X73.839 Y97.131 E18.82742
G1 X74.087 Y96.403 E18.86579
G1 X74.41 Y95.705 E18.90416
G1 X74.803 Y95.044 E18.94253
G1 X75.263 Y94.427 E18.98092
G1 X75.761 Y93.885 E19.01764
G1 X76.119 Y93.532 E19.04273
G1 X76.694 Y93.021 E19.0811
G1 X77.319 Y92.573 E19.11947
G1 X77.987 Y92.191 E19.15786
G1 X78.691 Y91.882 E19.19622
G1 X79.204 Y91.708 E19.22324
G1 X79.456 Y91.633 E19.23636
G1 X80.204 Y91.453 E19.27474
G1 X80.966 Y91.35 E19.31311
G1 X81.675 Y91.327 E19.3485
G1 X85.905 Y91.389 E19.55955
G1 X86.007 Y91.391 E19.56464
G1 X83.978 Y87.64 E19.77741
G1 X83.648 Y86.945 E19.81579
G1 X83.392 Y86.22 E19.85415
G1 X83.212 Y85.472 E19.89253
G1 X83.111 Y84.71 E19.93088
G1 X83.089 Y83.943 E19.96916
G1 X83.101 Y83.438 E19.99436
G1 X83.159 Y82.671 E20.03274
G1 X83.297 Y81.914 E20.07113
G1 X83.512 Y81.176 E20.10948
G1 X83.803 Y80.464 E20.14785
G1 X84.166 Y79.786 E20.18622
G1 X84.556 Y79.205 E20.22113
G1 X84.829 Y78.837 E20.24399
G1 X85.319 Y78.244 E20.28237
G0 F3600 X85.627 Y78.499
G1 F1800 X86.163 Y77.977 E20.3197
G1 X86.752 Y77.516 E20.35701
G1 X87.386 Y77.119 E20.39433
G1 X87.862 Y76.88 E20.42091
G1 X88.177 Y76.736 E20.43819
G1 X88.873 Y76.461 E20.47552
G1 X89.594 Y76.263 E20.51282
G1 X90.332 Y76.143 E20.55013
G1 X91.344 Y76.107 E20.60065
G1 X91.725 Y76.121 E20.61967
G1 X92.47 Y76.188 E20.65699
G1 X93.204 Y76.335 E20.69433
G1 X93.917 Y76.559 E20.73162
G1 X94.603 Y76.857 E20.76893
G1 X95.383 Y77.313 E20.81401
G1 X95.801 Y77.595 E20.83917
G1 X96.398 Y78.046 E20.87649
G1 X96.943 Y78.558 E20.9138
G1 X97.431 Y79.125 E20.95112
G1 X98 Y79.989 E21.00274
G1 X100.061 Y83.685 E21.21386
G1 X100.117 Y83.788 E21.21971
G1 X100.435 Y84.381 E21.25328
G1 X103.036 Y80.151 E21.50102
G1 X103.461 Y79.535 E21.53836
G1 X103.95 Y78.969 E21.57567
G1 X104.496 Y78.458 E21.61298
G1 X105.093 Y78.008 E21.65028
G1 X105.674 Y77.657 E21.68415
G1 X106.115 Y77.419 E21.70915
G1 X106.792 Y77.099 E21.74651
G1 X107.498 Y76.854 E21.78379
G1 X108.227 Y76.685 E21.82112
G1 X108.97 Y76.595 E21.85846
G1 X109.718 Y76.585 E21.89578
G1 X110.491 Y76.658 E21.93452
G1 X110.998 Y76.735 E21.96011
G1 X111.731 Y76.887 E21.99745
G1 X112.443 Y77.116 E22.03477
G1 X113.126 Y77.42 E22.07206
G1 X113.774 Y77.795 E22.10942
G1 X114.635 Y78.458 E22.16363
G1 X114.941 Y78.734 E22.18419
G1 X115.469 Y79.264 E22.22151
G1 X115.938 Y79.847 E22.25884
G1 X116.341 Y80.477 E22.29616
G1 X116.675 Y81.147 E22.3335
G1 X117.027 Y82.169 E22.38743
G1 X117.154 Y82.657 E22.41259
G1 X117.304 Y83.39 E22.44992
G1 X117.374 Y84.135 E22.48725
G1 X117.365 Y84.883 E22.52457
G1 X117.275 Y85.625 E22.56186
G1 X117.19 Y86.041 E22.58304
G1 X117.13 Y86.293 E22.59597
G1 X116.918 Y87.011 E22.63332
G1 X116.63 Y87.701 E22.67062
G1 X116.33 Y88.262 E22.70236
G1 X114.16 Y91.895 E22.91348
G1 X114.098 Y91.996 E22.91939
G1 X113.743 Y92.568 E22.95298
G1 X118.707 Y92.705 E23.20073
G1 X119.452 Y92.765 E23.23802
G1 X120.187 Y92.905 E23.27535
