;FLAVOR:Marlin
;TIME:6666
;Filament used: 0m
;Layer height: 0.1

;Generated with Cura_SteamEngine master
M190 S60
M104 S215
M109 S215
M82 ; absolute extrusion mode
G21 ;metric values
G90 ;absolute positioning
M82 ;set extruder to absolute mode
M107 ;start with the fan off
G28 X0 Y0 ;move X/Y to min endstops
G28 Z0 ;move Z to min endstops
G1 Z15.0 F9000 ;move the platform down 15mm
G92 E0 ;zero the extruded length
G1 F200 E3 ;extrude 3mm of feed stock
G92 E0 ;zero the extruded length again
G1 F9000
;Put printing message on LCD screen
M117 Printing...
;LAYER_COUNT:198
;LAYER:0
M107
G0 F3600 X84.35 Y89.755 Z0.3
;TYPE:SKIRT
G1 F1800 X84.936 Y89.225 E0.03942
G1 X85.571 Y88.756 E0.0788
G1 X86.251 Y88.355 E0.11819
G1 X86.968 Y88.024 E0.15759
G1 X87.715 Y87.767 E0.197
G1 X88.484 Y87.588 E0.23639
G1 X89.267 Y87.487 E0.27578
G1 X89.669 Y87.466 E0.29586
G1 X109.661 Y86.942 E1.29361
G1 X110.45 Y86.961 E1.33298
G1 X111.234 Y87.06 E1.37241
G1 X112.003 Y87.238 E1.41179
G1 X112.75 Y87.492 E1.45115
G1 X113.468 Y87.821 E1.49055
G1 X114.149 Y88.221 E1.52996
G1 X114.786 Y88.688 E1.56936
G1 X115.373 Y89.216 E1.60875
G1 X115.903 Y89.802 E1.64817
G1 X116.372 Y90.437 E1.68756
G1 X116.773 Y91.117 E1.72694
G1 X117.104 Y91.834 E1.76634
G1 X117.361 Y92.581 E1.80575
G1 X117.54 Y93.35 E1.84514
G1 X117.641 Y94.133 E1.88453
G1 X117.662 Y94.535 E1.90461
G1 X117.924 Y104.533 E2.40359
G1 X117.905 Y105.322 E2.44296
G1 X117.806 Y106.106 E2.48239
G1 X117.628 Y106.875 E2.52177
G1 X117.374 Y107.622 E2.56113
G1 X117.045 Y108.34 E2.60053
G1 X116.645 Y109.021 E2.63994
G1 X116.178 Y109.659 E2.67938
G1 X115.65 Y110.245 E2.71873
G1 X115.064 Y110.775 E2.75815
G1 X114.429 Y111.244 E2.79754
G1 X113.749 Y111.645 E2.83692
G1 X113.032 Y111.976 E2.87632
G1 X112.285 Y112.233 E2.91573
G1 X111.516 Y112.412 E2.95513
G1 X110.733 Y112.513 E2.99451
G1 X110.331 Y112.534 E3.0146
G1 X90.339 Y113.058 E4.01234
G1 X89.55 Y113.039 E4.05172
G1 X88.766 Y112.94 E4.09114
G1 X87.997 Y112.762 E4.13052
G1 X87.25 Y112.508 E4.16989
G1 X86.532 Y112.179 E4.20929
G1 X85.851 Y111.779 E4.24869
G1 X85.214 Y111.312 E4.2881
G1 X84.627 Y110.784 E4.32749
G1 X84.097 Y110.198 E4.36691
G1 X83.628 Y109.563 E4.40629
G1 X83.227 Y108.883 E4.44568
G1 X82.896 Y108.166 E4.48507
G1 X82.639 Y107.419 E4.52449
G1 X82.46 Y106.65 E4.56388
G1 X82.359 Y105.867 E4.60327
G1 X82.338 Y105.465 E4.62335
G1 X82.076 Y95.467 E5.12232
G1 X82.095 Y94.678 E5.1617
G1 X82.194 Y93.894 E5.20112
G1 X82.372 Y93.125 E5.2405
G1 X82.626 Y92.378 E5.27986
G1 X82.955 Y91.66 E5.31927
G1 X83.355 Y90.979 E5.35867
G1 X83.822 Y90.341 E5.39812
G1 X84.35 Y89.755 E5.43747
G0 F3600 X84.748 Y89.925
G1 F1800 X85.329 Y89.422 E5.47581
G1 X85.96 Y88.982 E5.51419
G1 X86.633 Y88.61 E5.55255
G1 X87.341 Y88.309 E5.59093
G1 X88.077 Y88.084 E5.62933
G1 X88.832 Y87.937 E5.6677
G1 X89.679 Y87.866 E5.71011
G1 X109.671 Y87.342 E6.70786
G1 X110.44 Y87.361 E6.74623
G1 X111.203 Y87.461 E6.78463
G1 X111.951 Y87.639 E6.82299
G1 X112.677 Y87.894 E6.86138
G1 X113.372 Y88.223 E6.89974
G1 X114.029 Y88.622 E6.93809
G1 X114.642 Y89.087 E6.97647
G1 X115.203 Y89.614 E7.01487
G1 X115.706 Y90.195 E7.05321
G1 X116.146 Y90.826 E7.09159
G1 X116.518 Y91.499 E7.12996
G1 X116.818 Y92.207 E7.16832
G1 X117.044 Y92.943 E7.20673
G1 X117.191 Y93.698 E7.2451
G1 X117.262 Y94.545 E7.28751
G1 X117.524 Y104.543 E7.78648
G1 X117.505 Y105.312 E7.82486
G1 X117.405 Y106.075 E7.86325
G1 X117.227 Y106.823 E7.90161
G1 X116.972 Y107.549 E7.94
G1 X116.643 Y108.244 E7.97836
G1 X116.244 Y108.901 E8.01671
G1 X115.779 Y109.514 E8.0551
G1 X115.252 Y110.075 E8.0935
G1 X114.671 Y110.578 E8.13184
G1 X114.04 Y111.018 E8.17022
G1 X113.367 Y111.39 E8.20858
G1 X112.659 Y111.691 E8.24696
G1 X111.923 Y111.916 E8.28536
G1 X111.168 Y112.063 E8.32374
G1 X110.321 Y112.134 E8.36614
G1 X90.329 Y112.658 E9.36389
G1 X89.56 Y112.639 E9.40227
G1 X88.797 Y112.539 E9.44066
G1 X88.049 Y112.361 E9.47902
G1 X87.323 Y112.106 E9.51741
G1 X86.628 Y111.777 E9.55577
G1 X85.971 Y111.378 E9.59412
G1 X85.358 Y110.913 E9.6325
G1 X84.797 Y110.386 E9.6709
G1 X84.294 Y109.805 E9.70924
G1 X83.854 Y109.174 E9.74762
G1 X83.482 Y108.501 E9.78599
G1 X83.182 Y107.793 E9.82435
G1 X82.956 Y107.057 E9.86276
G1 X82.809 Y106.302 E9.90114
G1 X82.738 Y105.455 E9.94354
G1 X82.476 Y95.457 E10.44251
G1 X82.495 Y94.688 E10.48089
G1 X82.595 Y93.925 E10.51928
G1 X82.773 Y93.177 E10.55764
G1 X83.028 Y92.451 E10.59603
G1 X83.357 Y91.756 E10.6344
G1 X83.756 Y91.099 E10.67274
G1 X84.221 Y90.486 E10.71113
G1 X84.748 Y89.925 E10.74953
G0 F3600 X85.144 Y90.102
G1 F1800 X85.722 Y89.626 E10.78689
G1 X86.347 Y89.216 E10.82418
G1 X87.013 Y88.874 E10.86153
G1 X87.711 Y88.605 E10.89885
G1 X88.434 Y88.413 E10.93617
G1 X89.173 Y88.298 E10.97348
G1 X89.69 Y88.265 E10.99933
G1 X109.682 Y87.741 E11.99708
G1 X110.429 Y87.762 E12.03436
G1 X111.171 Y87.862 E12.07171
G1 X111.897 Y88.04 E12.10901
G1 X112.6 Y88.296 E12.14633
G1 X113.272 Y88.624 E12.18364
G1 X113.905 Y89.023 E12.22097
G1 X114.492 Y89.487 E12.2583
G1 X115.026 Y90.01 E12.29559
G1 X115.502 Y90.588 E12.33295
G1 X115.912 Y91.213 E12.37024
G1 X116.254 Y91.879 E12.40759
G1 X116.523 Y92.577 E12.44491
G1 X116.715 Y93.3 E12.48223
G1 X116.83 Y94.039 E12.51954
G1 X116.863 Y94.556 E12.54539
G1 X117.125 Y104.554 E13.04436
G1 X117.104 Y105.301 E13.08165
G1 X117.004 Y106.043 E13.119
G1 X116.826 Y106.769 E13.15629
G1 X116.57 Y107.472 E13.19362
G1 X116.242 Y108.144 E13.23092
G1 X115.843 Y108.777 E13.26826
G1 X115.379 Y109.364 E13.30559
G1 X114.856 Y109.898 E13.34288
G1 X114.278 Y110.374 E13.38023
G1 X113.653 Y110.784 E13.41752
G1 X112.987 Y111.126 E13.45488
G1 X112.289 Y111.395 E13.4922
G1 X111.566 Y111.587 E13.52952
G1 X110.827 Y111.702 E13.56683
G1 X110.31 Y111.735 E13.59267
G1 X90.318 Y112.259 E14.59042
G1 X89.571 Y112.238 E14.62771
G1 X88.829 Y112.138 E14.66506
G1 X88.103 Y111.96 E14.70235
G1 X87.4 Y111.704 E14.73968
G1 X86.728 Y111.376 E14.77698
G1 X86.095 Y110.977 E14.81431
G1 X85.508 Y110.513 E14.85164
G1 X84.974 Y109.99 E14.88894
G1 X84.498 Y109.412 E14.92629
G1 X84.088 Y108.787 E14.96358
G1 X83.746 Y108.121 E15.00094
G1 X83.477 Y107.423 E15.03826
G1 X83.285 Y106.7 E15.07558
G1 X83.17 Y105.961 E15.11289
G1 X83.137 Y105.444 E15.13873
G1 X82.875 Y95.446 E15.63771
G1 X82.896 Y94.699 E15.67499
G1 X82.996 Y93.957 E15.71234
G1 X83.174 Y93.231 E15.74964
G1 X83.43 Y92.528 E15.78696
G1 X83.758 Y91.856 E15.82427
G1 X84.157 Y91.223 E15.8616
G1 X84.621 Y90.636 E15.89893
G1 X85.144 Y90.102 E15.93622
G0 F3600 X85.02 Y90.79
G1 F1800 X85.54 Y90.284 E15.97242
G1 X86.114 Y89.838 E16.00868
G1 X86.733 Y89.458 E16.04492
G1 X87.39 Y89.148 E16.08116
G1 X88.077 Y88.912 E16.11741
G1 X88.785 Y88.753 E16.15361
G1 X89.7 Y88.665 E16.19947
G1 X109.692 Y88.141 E17.19721
G1 X110.418 Y88.162 E17.23345
G1 X111.137 Y88.263 E17.26967
G1 X111.841 Y88.442 E17.30591
G1 X112.521 Y88.697 E17.34215
G1 X113.169 Y89.026 E17.3784
G1 X113.777 Y89.423 E17.41463
G1 X114.338 Y89.885 E17.45089
G1 X114.844 Y90.406 E17.48712
G1 X115.29 Y90.98 E17.52339
G1 X115.67 Y91.599 E17.55962
G1 X115.98 Y92.255 E17.59582
G1 X116.216 Y92.942 E17.63206
G1 X116.375 Y93.651 E17.66831
G1 X116.463 Y94.566 E17.71417
G1 X116.725 Y104.564 E18.21315
G1 X116.704 Y105.29 E18.24938
G1 X116.603 Y106.01 E18.28566
G1 X116.424 Y106.713 E18.32185
G1 X116.169 Y107.393 E18.35808
G1 X115.84 Y108.041 E18.39434
G1 X115.443 Y108.649 E18.43056
G1 X114.98 Y109.21 E18.46685
G1 X114.46 Y109.716 E18.50305
G1 X113.886 Y110.162 E18.53932
G1 X113.267 Y110.542 E18.57555
G1 X112.61 Y110.852 E18.6118
G1 X111.923 Y111.088 E18.64804
G1 X111.215 Y111.247 E18.68424
G1 X110.3 Y111.335 E18.7301
G1 X90.308 Y111.859 E19.72785
G1 X89.582 Y111.838 E19.76408
G1 X88.863 Y111.737 E19.80031
G1 X88.159 Y111.558 E19.83655
G1 X87.479 Y111.303 E19.87278
G1 X86.831 Y110.974 E19.90904
G1 X86.223 Y110.577 E19.94526
G1 X85.662 Y110.115 E19.98152
G1 X85.156 Y109.594 E20.01775
G1 X84.71 Y109.02 E20.05402
G1 X84.33 Y108.401 E20.09026
G1 X84.02 Y107.745 E20.12646
G1 X83.784 Y107.058 E20.1627
G1 X83.625 Y106.349 E20.19895
G1 X83.537 Y105.434 E20.24481
G1 X83.275 Y95.436 E20.74378
G1 X83.296 Y94.71 E20.78002
G1 X83.397 Y93.99 E20.81629
G1 X83.576 Y93.287 E20.85248
G1 X83.831 Y92.607 E20.88871
G1 X84.16 Y91.959 E20.92497
G1 X84.557 Y91.351 E20.9612
G1 X85.02 Y90.79 E20.99749
G0 F3600 X85.418 Y90.951
G1 F1800 X85.935 Y90.474 E21.03258
G1 X86.504 Y90.058 E21.06775
G1 X87.115 Y89.71 E21.10283
G1 X87.763 Y89.433 E21.13798
G1 X88.437 Y89.232 E21.17307
G1 X89.13 Y89.108 E21.2082
G1 X89.711 Y89.065 E21.23726
G1 X109.703 Y88.541 E22.23501
G1 X110.406 Y88.563 E22.2701
G1 X111.103 Y88.664 E22.30524
G1 X111.784 Y88.843 E22.34037
G1 X112.44 Y89.099 E22.3755
G1 X113.062 Y89.427 E22.41058
G1 X113.644 Y89.824 E22.44573
G1 X114.177 Y90.284 E22.48085
G1 X114.654 Y90.801 E22.51595
G1 X115.07 Y91.37 E22.55111
G1 X115.418 Y91.981 E22.58619
G1 X115.695 Y92.629 E22.62135
G1 X115.896 Y93.303 E22.65644
G1 X116.02 Y93.996 E22.69156
G1 X116.063 Y94.577 E22.72063
G1 X116.325 Y104.575 E23.2196
G1 X116.303 Y105.278 E23.25469
G1 X116.202 Y105.975 E23.28983
G1 X116.023 Y106.656 E23.32496
G1 X115.767 Y107.312 E23.36009
G1 X115.439 Y107.934 E23.39517
G1 X115.042 Y108.516 E23.43032
G1 X114.582 Y109.049 E23.46545
G1 X114.065 Y109.526 E23.50054
G1 X113.496 Y109.942 E23.53571
G1 X112.885 Y110.29 E23.57079
G1 X112.237 Y110.567 E23.60595
G1 X111.563 Y110.768 E23.64103
G1 X110.87 Y110.892 E23.67616
G1 X110.289 Y110.935 E23.70522
G1 X90.297 Y111.459 E24.70297
G1 X89.594 Y111.437 E24.73806
G1 X88.897 Y111.336 E24.7732
G1 X88.216 Y111.157 E24.80833
G1 X87.56 Y110.901 E24.84346
G1 X86.938 Y110.573 E24.87854
G1 X86.356 Y110.176 E24.91369
G1 X85.823 Y109.716 E24.94881
G1 X85.346 Y109.199 E24.98391
G1 X84.93 Y108.63 E25.01907
G1 X84.582 Y108.019 E25.05415
G1 X84.305 Y107.371 E25.08931
G1 X84.104 Y106.697 E25.1244
G1 X83.98 Y106.004 E25.15953
G1 X83.937 Y105.423 E25.18859
G1 X83.675 Y95.425 E25.68756
G1 X83.697 Y94.722 E25.72265
G1 X83.798 Y94.025 E25.75779
G1 X83.977 Y93.344 E25.79292
G1 X84.233 Y92.688 E25.82805
G1 X84.561 Y92.066 E25.86313
G1 X84.958 Y91.484 E25.89828
G1 X85.418 Y90.951 E25.93341
G0 F3600 X85.816 Y91.118
G1 F1800 X86.329 Y90.671 E25.96735
G1 X86.892 Y90.288 E26.00133
G1 X87.495 Y89.973 E26.03527
G1 X88.132 Y89.731 E26.06926
G1 X88.792 Y89.565 E26.10322
G1 X89.721 Y89.465 E26.14983
G1 X109.713 Y88.941 E27.14758
G1 X110.394 Y88.963 E27.18157
G1 X111.067 Y89.065 E27.21553
G1 X111.723 Y89.245 E27.24947
G1 X112.355 Y89.5 E27.28347
G1 X112.951 Y89.828 E27.31741
G1 X113.506 Y90.224 E27.35142
G1 X114.01 Y90.682 E27.3854
G1 X114.456 Y91.195 E27.41931
G1 X114.84 Y91.758 E27.45331
G1 X115.155 Y92.361 E27.48725
G1 X115.397 Y92.998 E27.52125
G1 X115.563 Y93.658 E27.5552
G1 X115.663 Y94.587 E27.60182
G1 X115.925 Y104.585 E28.10079
G1 X115.903 Y105.266 E28.13479
G1 X115.801 Y105.939 E28.16875
G1 X115.621 Y106.595 E28.20268
G1 X115.366 Y107.227 E28.23668
G1 X115.038 Y107.823 E28.27062
G1 X114.642 Y108.378 E28.30464
G1 X114.184 Y108.882 E28.33861
G1 X113.671 Y109.329 E28.37256
G1 X113.108 Y109.712 E28.40653
G1 X112.505 Y110.027 E28.44047
G1 X111.868 Y110.269 E28.47447
G1 X111.208 Y110.435 E28.50842
G1 X110.279 Y110.535 E28.55504
G1 X90.287 Y111.059 E29.55279
G1 X89.606 Y111.037 E29.58678
G1 X88.933 Y110.935 E29.62074
G1 X88.277 Y110.755 E29.65468
G1 X87.645 Y110.5 E29.68868
G1 X87.049 Y110.172 E29.72262
G1 X86.494 Y109.776 E29.75663
G1 X85.99 Y109.318 E29.79061
G1 X85.544 Y108.805 E29.82452
G1 X85.16 Y108.242 E29.85852
G1 X84.845 Y107.639 E29.89246
G1 X84.603 Y107.002 E29.92646
G1 X84.437 Y106.342 E29.96041
G1 X84.337 Y105.413 E30.00703
G1 X84.075 Y95.415 E30.506
G1 X84.097 Y94.734 E30.53999
G1 X84.199 Y94.061 E30.57395
G1 X84.379 Y93.405 E30.60789
G1 X84.634 Y92.773 E30.64189
G1 X84.962 Y92.177 E30.67583
G1 X85.358 Y91.622 E30.70985
G1 X85.816 Y91.118 E30.74382
G0 F3600 X86.213 Y91.293
G1 F1800 X86.722 Y90.878 E30.77659
G1 X87.278 Y90.528 E30.80936
G1 X87.872 Y90.248 E30.84213
G1 X88.496 Y90.042 E30.87491
G1 X89.14 Y89.913 E30.90768
G1 X89.732 Y89.865 E30.93731
G1 X109.724 Y89.341 E31.93506
G1 X110.38 Y89.364 E31.96781
G1 X111.029 Y89.466 E32.00058
G1 X111.661 Y89.646 E32.03337
G1 X112.266 Y89.902 E32.06614
G1 X112.835 Y90.229 E32.09888
G1 X113.361 Y90.624 E32.1317
G1 X113.835 Y91.079 E32.16448
G1 X114.25 Y91.588 E32.19724
G1 X114.6 Y92.144 E32.23002
G1 X114.88 Y92.738 E32.26278
G1 X115.086 Y93.362 E32.29557
G1 X115.215 Y94.006 E32.32834
G1 X115.263 Y94.598 E32.35797
G1 X115.525 Y104.596 E32.85694
G1 X115.502 Y105.252 E32.88969
G1 X115.4 Y105.901 E32.92247
G1 X115.22 Y106.533 E32.95525
G1 X114.964 Y107.138 E32.98802
G1 X114.637 Y107.708 E33.02081
G1 X114.242 Y108.233 E33.05359
G1 X113.787 Y108.707 E33.08637
G1 X113.278 Y109.122 E33.11913
G1 X112.722 Y109.472 E33.15191
G1 X112.128 Y109.752 E33.18467
G1 X111.504 Y109.958 E33.21746
G1 X110.86 Y110.087 E33.25022
G1 X110.268 Y110.135 E33.27985
G1 X90.276 Y110.659 E34.2776
G1 X89.62 Y110.636 E34.31035
G1 X88.971 Y110.534 E34.34313
G1 X88.339 Y110.354 E34.37591
G1 X87.734 Y110.098 E34.40869
G1 X87.165 Y109.771 E34.44143
G1 X86.639 Y109.376 E34.47424
G1 X86.165 Y108.921 E34.50702
G1 X85.75 Y108.412 E34.53979
G1 X85.4 Y107.856 E34.57257
G1 X85.12 Y107.262 E34.60533
G1 X84.914 Y106.638 E34.63811
G1 X84.785 Y105.994 E34.67088
G1 X84.737 Y105.402 E34.70051
G1 X84.475 Y95.404 E35.19949
G1 X84.498 Y94.748 E35.23223
G1 X84.6 Y94.099 E35.26501
G1 X84.78 Y93.467 E35.29779
G1 X85.036 Y92.862 E35.33057
G1 X85.363 Y92.292 E35.36335
G1 X85.758 Y91.767 E35.39613
G1 X86.213 Y91.293 E35.42891
G0 F3600 X86.157 Y91.918
G1 F1800 X86.608 Y91.476 E35.46042
G1 X87.112 Y91.094 E35.49197
G1 X87.66 Y90.779 E35.5235
G1 X88.244 Y90.536 E35.55506
G1 X88.853 Y90.368 E35.58658
G1 X89.742 Y90.265 E35.63123
G1 X109.734 Y89.741 E36.62897
G1 X110.366 Y89.764 E36.66053
G1 X110.989 Y89.867 E36.69203
G1 X111.595 Y90.048 E36.72358
G1 X112.173 Y90.304 E36.75512
G1 X112.714 Y90.63 E36.78663
G1 X113.21 Y91.023 E36.8182
G1 X113.652 Y91.474 E36.84971
G1 X114.034 Y91.978 E36.88126
G1 X114.349 Y92.526 E36.91279
G1 X114.592 Y93.11 E36.94435
G1 X114.76 Y93.719 E36.97587
G1 X114.863 Y94.608 E37.02052
G1 X115.125 Y104.606 E37.51949
G1 X115.102 Y105.238 E37.55104
G1 X114.999 Y105.861 E37.58255
G1 X114.818 Y106.467 E37.6141
G1 X114.562 Y107.045 E37.64564
G1 X114.236 Y107.586 E37.67715
G1 X113.843 Y108.082 E37.70872
G1 X113.392 Y108.524 E37.74023
G1 X112.888 Y108.906 E37.77178
G1 X112.34 Y109.221 E37.80331
G1 X111.756 Y109.464 E37.83487
G1 X111.147 Y109.632 E37.86639
G1 X110.258 Y109.735 E37.91104
G1 X90.266 Y110.259 E38.90879
G1 X89.634 Y110.236 E38.94034
G1 X89.011 Y110.133 E38.97184
G1 X88.405 Y109.952 E39.00339
G1 X87.827 Y109.696 E39.03493
G1 X87.286 Y109.37 E39.06644
G1 X86.79 Y108.977 E39.09802
G1 X86.348 Y108.526 E39.12952
G1 X85.966 Y108.022 E39.16107
G1 X85.651 Y107.474 E39.19261
G1 X85.408 Y106.89 E39.22416
G1 X85.24 Y106.281 E39.25568
G1 X85.137 Y105.392 E39.30033
G1 X84.875 Y95.394 E39.7993
G1 X84.898 Y94.762 E39.83086
G1 X85.001 Y94.139 E39.86236
G1 X85.182 Y93.533 E39.89391
G1 X85.438 Y92.955 E39.92545
G1 X85.764 Y92.414 E39.95696
G1 X86.157 Y91.918 E39.98853
G0 F3600 X86.555 Y92.077
G1 F1800 X87.003 Y91.668 E40.0188
G1 X87.501 Y91.322 E40.04905
G1 X88.04 Y91.044 E40.07931
G1 X88.611 Y90.84 E40.10956
G1 X89.203 Y90.712 E40.13978
G1 X89.752 Y90.665 E40.16727
G1 X109.744 Y90.141 E41.16501
G1 X110.35 Y90.165 E41.19527
G1 X110.948 Y90.268 E41.22555
G1 X111.526 Y90.449 E41.25576
G1 X112.076 Y90.705 E41.28603
G1 X112.587 Y91.031 E41.31627
G1 X113.051 Y91.421 E41.34651
G1 X113.46 Y91.869 E41.37677
G1 X113.806 Y92.367 E41.40703
G1 X114.084 Y92.906 E41.43728
G1 X114.288 Y93.477 E41.46753
G1 X114.416 Y94.069 E41.49775
G1 X114.463 Y94.618 E41.52524
G1 X114.725 Y104.616 E42.02422
G1 X114.701 Y105.222 E42.05447
G1 X114.598 Y105.82 E42.08475
G1 X114.417 Y106.398 E42.11496
G1 X114.161 Y106.948 E42.14523
G1 X113.835 Y107.459 E42.17547
G1 X113.445 Y107.923 E42.20571
G1 X112.997 Y108.332 E42.23597
G1 X112.499 Y108.678 E42.26623
G1 X111.96 Y108.956 E42.29648
G1 X111.389 Y109.16 E42.32674
G1 X110.797 Y109.288 E42.35695
G1 X110.248 Y109.335 E42.38444
G1 X90.256 Y109.859 E43.38219
