;FLAVOR:Marlin
;TIME:6666
;Filament used: 0m
;Layer height: 0.1

;Generated with Cura_SteamEngine master
M190 S60
M104 S215
M109 S215
M82 ; absolute extrusion mode
G21 ;metric values
G90 ;absolute positioning
M82 ;set extruder to absolute mode
M107 ;start with the fan off
G28 X0 Y0 ;move X/Y to min endstops
G28 Z0 ;move Z to min endstops
G1 Z15.0 F9000 ;move the platform down 15mm
G92 E0 ;zero the extruded length
G1 F200 E3 ;extrude 3mm of feed stock
G92 E0 ;zero the extruded length again
G1 F9000
;Put printing message on LCD screen
M117 Printing...
;LAYER_COUNT:298
;LAYER:0
M107
G0 F3600 X87.566 Y87.414 Z0.3
;TYPE:SKIRT
G1 F1800 X88.124 Y86.854 E0.03944
G1 X88.783 Y86.319 E0.08179
G1 X90.464 Y85.099 E0.18541
G1 X91.125 Y84.668 E0.22478
G1 X91.874 Y84.286 E0.26673
G1 X93.764 Y83.445 E0.36994
G1 X94.501 Y83.161 E0.40934
G1 X95.312 Y82.942 E0.45125
G1 X97.343 Y82.51 E0.55484
G1 X98.123 Y82.385 E0.59425
G1 X98.966 Y82.339 E0.63637
G1 X101.034 Y82.339 E0.73955
G1 X101.823 Y82.379 E0.77896
G1 X102.657 Y82.51 E0.82108
G1 X104.688 Y82.942 E0.92467
G1 X105.451 Y83.145 E0.96406
G1 X106.236 Y83.445 E1.00599
G1 X108.126 Y84.286 E1.1092
G1 X108.83 Y84.643 E1.14858
G1 X109.536 Y85.099 E1.19051
G1 X111.217 Y86.319 E1.29413
G1 X111.832 Y86.815 E1.33355
G1 X112.434 Y87.414 E1.37592
G1 X113.821 Y88.955 E1.47936
G1 X114.318 Y89.568 E1.51873
G1 X114.779 Y90.275 E1.56083
G1 X115.813 Y92.067 E1.66405
G1 X116.173 Y92.77 E1.70346
G1 X116.474 Y93.55 E1.74517
G1 X117.116 Y95.522 E1.84863
G1 X117.322 Y96.285 E1.88806
G1 X117.456 Y97.12 E1.93026
G1 X117.673 Y99.181 E2.03365
G1 X117.716 Y99.97 E2.07307
G1 X117.673 Y100.814 E2.11523
G1 X117.456 Y102.878 E2.21877
G1 X117.334 Y103.658 E2.25816
G1 X117.116 Y104.477 E2.30044
G1 X116.474 Y106.449 E2.40391
G1 X116.192 Y107.186 E2.44328
G1 X115.814 Y107.931 E2.48496
G1 X114.78 Y109.724 E2.58822
G1 X114.351 Y110.387 E2.62762
G1 X113.821 Y111.045 E2.66977
G1 X112.434 Y112.586 E2.7732
G1 X111.876 Y113.146 E2.81264
G1 X111.217 Y113.681 E2.85499
G1 X109.537 Y114.9 E2.95855
G1 X108.875 Y115.331 E2.99796
G1 X108.129 Y115.713 E3.03977
G1 X106.238 Y116.555 E3.14304
G1 X105.501 Y116.839 E3.18245
G1 X104.688 Y117.058 E3.22446
G1 X102.657 Y117.49 E3.32805
G1 X101.877 Y117.615 E3.36746
G1 X101.034 Y117.661 E3.40958
G1 X98.966 Y117.661 E3.51275
G1 X98.177 Y117.621 E3.55217
G1 X97.343 Y117.49 E3.59429
G1 X95.312 Y117.058 E3.69788
G1 X94.549 Y116.855 E3.73727
G1 X93.762 Y116.555 E3.77929
G1 X91.871 Y115.713 E3.88256
G1 X91.167 Y115.355 E3.92196
G1 X90.463 Y114.9 E3.96378
G1 X88.783 Y113.681 E4.06734
G1 X88.168 Y113.186 E4.10673
G1 X87.566 Y112.586 E4.14913
G1 X86.179 Y111.045 E4.25257
G1 X85.682 Y110.432 E4.29194
G1 X85.22 Y109.724 E4.33411
G1 X84.186 Y107.931 E4.43738
G1 X83.827 Y107.227 E4.4768
G1 X83.526 Y106.449 E4.51842
G1 X82.884 Y104.477 E4.62189
G1 X82.678 Y103.714 E4.66132
G1 X82.544 Y102.879 E4.70351
G1 X82.327 Y100.819 E4.80685
G1 X82.284 Y100.031 E4.84622
G1 X82.327 Y99.187 E4.88838
G1 X82.544 Y97.122 E4.99197
G1 X82.666 Y96.342 E5.03136
G1 X82.884 Y95.522 E5.07369
G1 X83.526 Y93.55 E5.17716
G1 X83.808 Y92.813 E5.21653
G1 X84.187 Y92.067 E5.25827
G1 X85.221 Y90.275 E5.36149
G1 X85.65 Y89.612 E5.40089
G1 X86.179 Y88.955 E5.44297
G1 X87.566 Y87.414 E5.54641
G0 F3600 X87.864 Y87.681
G1 F1800 X88.407 Y87.137 E5.58475
G1 X89.017 Y86.643 E5.62392
G1 X90.698 Y85.423 E5.72754
G1 X91.344 Y85.004 E5.76595
G1 X92.037 Y84.651 E5.80476
G1 X93.927 Y83.81 E5.90796
G1 X94.645 Y83.534 E5.94634
G1 X95.395 Y83.333 E5.98508
G1 X97.426 Y82.901 E6.08867
G1 X98.186 Y82.78 E6.12706
G1 X98.966 Y82.739 E6.16603
G1 X101.034 Y82.739 E6.26921
G1 X101.802 Y82.779 E6.30757
G1 X102.574 Y82.901 E6.34657
G1 X104.605 Y83.333 E6.45016
G1 X105.348 Y83.532 E6.48853
G1 X106.073 Y83.81 E6.52727
G1 X107.963 Y84.651 E6.63048
G1 X108.649 Y85 E6.66888
G1 X109.302 Y85.423 E6.70769
G1 X110.983 Y86.643 E6.81132
G1 X111.581 Y87.127 E6.8497
G1 X112.136 Y87.681 E6.88882
G1 X113.523 Y89.222 E6.99226
G1 X114.007 Y89.82 E7.03064
G1 X114.433 Y90.475 E7.06962
G1 X115.467 Y92.267 E7.17284
G1 X115.816 Y92.952 E7.2112
G1 X116.093 Y93.674 E7.24978
G1 X116.735 Y95.646 E7.35324
G1 X116.935 Y96.389 E7.39163
G1 X117.058 Y97.162 E7.43068
G1 X117.275 Y99.223 E7.53407
G1 X117.316 Y99.991 E7.57244
G1 X117.275 Y100.772 E7.61146
G1 X117.058 Y102.836 E7.715
G1 X116.938 Y103.595 E7.75334
G1 X116.735 Y104.353 E7.79249
G1 X116.093 Y106.325 E7.89596
G1 X115.818 Y107.043 E7.93431
G1 X115.467 Y107.731 E7.97285
G1 X114.433 Y109.524 E8.07611
G1 X114.015 Y110.169 E8.11445
G1 X113.523 Y110.778 E8.15351
G1 X112.136 Y112.319 E8.25695
G1 X111.593 Y112.863 E8.2953
G1 X110.982 Y113.357 E8.3345
G1 X109.302 Y114.576 E8.43805
G1 X108.657 Y114.995 E8.47642
G1 X107.966 Y115.347 E8.51511
G1 X106.075 Y116.189 E8.61839
G1 X105.357 Y116.465 E8.65676
G1 X104.605 Y116.667 E8.69561
G1 X102.574 Y117.099 E8.7992
G1 X101.814 Y117.22 E8.8376
G1 X101.034 Y117.261 E8.87657
G1 X98.966 Y117.261 E8.97974
G1 X98.198 Y117.221 E9.01811
G1 X97.426 Y117.099 E9.0571
G1 X95.395 Y116.667 E9.16069
G1 X94.652 Y116.468 E9.19907
G1 X93.925 Y116.189 E9.23792
G1 X92.034 Y115.347 E9.34119
G1 X91.348 Y114.998 E9.37959
G1 X90.698 Y114.576 E9.41825
G1 X89.018 Y113.357 E9.52181
G1 X88.42 Y112.874 E9.56016
G1 X87.864 Y112.319 E9.59935
G1 X86.477 Y110.778 E9.70279
G1 X85.993 Y110.18 E9.74117
G1 X85.567 Y109.524 E9.78019
G1 X84.533 Y107.731 E9.88345
G1 X84.183 Y107.045 E9.92188
G1 X83.907 Y106.325 E9.96035
G1 X83.265 Y104.353 E10.06381
G1 X83.065 Y103.61 E10.1022
G1 X82.942 Y102.837 E10.14125
G1 X82.725 Y100.777 E10.24459
G1 X82.684 Y100.009 E10.28296
G1 X82.725 Y99.229 E10.32193
G1 X82.942 Y97.164 E10.42552
G1 X83.062 Y96.404 E10.46391
G1 X83.265 Y95.646 E10.50306
G1 X83.907 Y93.674 E10.60652
G1 X84.182 Y92.956 E10.64488
G1 X84.533 Y92.267 E10.68346
G1 X85.567 Y90.475 E10.78668
G1 X85.986 Y89.829 E10.82509
G1 X86.477 Y89.222 E10.86404
G1 X87.864 Y87.681 E10.96748
G0 F3600 X88.161 Y87.949
G1 F1800 X88.691 Y87.421 E11.0048
G1 X89.252 Y86.967 E11.04081
G1 X90.933 Y85.747 E11.14443
G1 X91.561 Y85.34 E11.18177
G1 X92.199 Y85.017 E11.21745
G1 X94.089 Y84.176 E11.32065
G1 X94.788 Y83.908 E11.358
G1 X95.479 Y83.724 E11.39368
G1 X97.51 Y83.292 E11.49727
G1 X98.249 Y83.176 E11.53459
G1 X98.966 Y83.139 E11.57041
G1 X101.034 Y83.139 E11.67358
G1 X101.781 Y83.179 E11.7109
G1 X102.49 Y83.292 E11.74672
G1 X104.521 Y83.724 E11.85032
G1 X105.244 Y83.919 E11.88767
G1 X105.911 Y84.176 E11.92334
G1 X107.801 Y85.017 E12.02654
G1 X108.467 Y85.357 E12.06385
G1 X109.067 Y85.747 E12.09955
G1 X110.748 Y86.967 E12.20318
G1 X111.329 Y87.438 E12.24049
G1 X111.839 Y87.949 E12.27651
G1 X113.226 Y89.49 E12.37994
G1 X113.696 Y90.072 E12.41727
G1 X114.086 Y90.675 E12.45309
G1 X115.12 Y92.467 E12.55631
G1 X115.459 Y93.134 E12.59364
G1 X115.713 Y93.798 E12.62911
G1 X116.355 Y95.77 E12.73257
G1 X116.548 Y96.493 E12.76991
G1 X116.661 Y97.204 E12.80583
G1 X116.878 Y99.265 E12.90922
G1 X116.916 Y100.012 E12.94653
G1 X116.878 Y100.73 E12.98241
G1 X116.661 Y102.794 E13.08595
G1 X116.543 Y103.533 E13.12328
G1 X116.355 Y104.229 E13.15925
G1 X115.713 Y106.201 E13.26272
G1 X115.444 Y106.899 E13.30004
G1 X115.121 Y107.531 E13.33545
G1 X114.087 Y109.324 E13.43871
G1 X113.679 Y109.951 E13.47603
G1 X113.226 Y110.51 E13.51192
G1 X111.839 Y112.051 E13.61536
G1 X111.309 Y112.579 E13.65268
G1 X110.747 Y113.034 E13.68876
G1 X109.067 Y114.253 E13.79231
G1 X108.439 Y114.659 E13.82962
G1 X107.803 Y114.982 E13.86521
G1 X105.912 Y115.824 E13.96848
G1 X105.214 Y116.091 E14.00577
G1 X104.521 Y116.276 E14.04155
G1 X102.49 Y116.708 E14.14515
G1 X101.751 Y116.824 E14.18247
G1 X101.034 Y116.861 E14.21828
G1 X98.966 Y116.861 E14.32146
G1 X98.219 Y116.821 E14.35878
G1 X97.51 Y116.708 E14.3946
G1 X95.479 Y116.276 E14.49819
G1 X94.756 Y116.081 E14.53555
G1 X94.088 Y115.824 E14.57126
G1 X92.197 Y114.982 E14.67453
G1 X91.53 Y114.641 E14.7119
G1 X90.933 Y114.253 E14.74743
G1 X89.253 Y113.034 E14.85098
G1 X88.672 Y112.563 E14.8883
G1 X88.161 Y112.051 E14.92439
G1 X86.774 Y110.51 E15.02782
G1 X86.304 Y109.928 E15.06514
G1 X85.913 Y109.324 E15.10104
G1 X84.879 Y107.531 E15.2043
G1 X84.541 Y106.864 E15.24161
G1 X84.287 Y106.201 E15.27703
G1 X83.645 Y104.229 E15.38049
G1 X83.452 Y103.506 E15.41783
G1 X83.34 Y102.795 E15.45374
G1 X83.123 Y100.735 E15.55708
G1 X83.084 Y99.988 E15.5944
G1 X83.122 Y99.27 E15.63027
G1 X83.339 Y97.205 E15.73386
G1 X83.457 Y96.467 E15.77115
G1 X83.645 Y95.77 E15.80716
G1 X84.287 Y93.798 E15.91063
G1 X84.556 Y93.1 E15.94795
G1 X84.88 Y92.467 E15.98343
G1 X85.914 Y90.675 E16.08665
G1 X86.322 Y90.048 E16.12397
G1 X86.774 Y89.49 E16.15979
G1 X88.161 Y87.949 E16.26323
G0 F3600 X88.458 Y88.217
G1 F1800 X88.973 Y87.704 E16.29949
G1 X89.487 Y87.29 E16.33242
G1 X91.168 Y86.07 E16.43605
G1 X91.779 Y85.677 E16.47229
G1 X92.362 Y85.382 E16.50489
G1 X94.252 Y84.541 E16.60809
G1 X94.931 Y84.283 E16.64433
G1 X95.562 Y84.115 E16.67691
G1 X97.593 Y83.683 E16.7805
G1 X98.311 Y83.572 E16.81675
G1 X98.966 Y83.539 E16.84947
G1 X101.034 Y83.539 E16.95264
G1 X101.759 Y83.579 E16.98887
G1 X102.407 Y83.683 E17.02161
G1 X104.438 Y84.115 E17.1252
G1 X105.139 Y84.305 E17.16144
G1 X105.748 Y84.541 E17.19402
G1 X107.638 Y85.382 E17.29723
G1 X108.285 Y85.713 E17.33349
G1 X108.832 Y86.07 E17.36608
G1 X110.513 Y87.29 E17.4697
G1 X111.076 Y87.749 E17.50594
G1 X111.542 Y88.217 E17.53889
G1 X112.929 Y89.758 E17.64233
G1 X113.384 Y90.323 E17.67852
G1 X113.74 Y90.874 E17.71125
G1 X114.774 Y92.666 E17.81446
G1 X115.101 Y93.315 E17.85072
G1 X115.333 Y93.922 E17.88314
G1 X115.975 Y95.894 E17.98661
G1 X116.161 Y96.596 E18.02284
G1 X116.263 Y97.246 E18.05566
G1 X116.48 Y99.307 E18.15906
G1 X116.516 Y100.032 E18.19527
G1 X116.48 Y100.688 E18.22805
G1 X116.263 Y102.752 E18.33159
G1 X116.147 Y103.469 E18.36782
G1 X115.975 Y104.105 E18.40069
G1 X115.333 Y106.077 E18.50416
G1 X115.07 Y106.754 E18.5404
G1 X114.774 Y107.331 E18.57275
G1 X113.74 Y109.124 E18.67601
G1 X113.343 Y109.732 E18.71224
G1 X112.929 Y110.242 E18.74501
G1 X111.542 Y111.783 E18.84845
G1 X111.027 Y112.296 E18.88471
G1 X110.512 Y112.71 E18.91768
G1 X108.832 Y113.929 E19.02123
G1 X108.222 Y114.322 E19.05743
G1 X107.641 Y114.616 E19.08992
G1 X105.75 Y115.458 E19.19319
G1 X105.071 Y115.717 E19.22945
G1 X104.438 Y115.885 E19.26212
G1 X102.407 Y116.317 E19.36572
G1 X101.689 Y116.428 E19.40196
G1 X101.034 Y116.461 E19.43468
G1 X98.966 Y116.461 E19.53786
G1 X98.241 Y116.421 E19.57408
G1 X97.593 Y116.317 E19.60682
G1 X95.562 Y115.885 E19.71042
G1 X94.861 Y115.695 E19.74665
G1 X94.25 Y115.458 E19.77935
G1 X92.359 Y114.616 E19.88262
G1 X91.713 Y114.285 E19.91883
G1 X91.168 Y113.929 E19.95131
G1 X89.488 Y112.71 E20.05487
G1 X88.924 Y112.252 E20.09111
G1 X88.458 Y111.783 E20.1241
G1 X87.071 Y110.242 E20.22753
G1 X86.616 Y109.677 E20.26373
G1 X86.26 Y109.124 E20.29654
G1 X85.226 Y107.331 E20.3998
G1 X84.898 Y106.683 E20.43603
G1 X84.667 Y106.077 E20.46839
G1 X84.025 Y104.105 E20.57186
G1 X83.839 Y103.403 E20.60809
G1 X83.737 Y102.753 E20.64091
G1 X83.52 Y100.693 E20.74425
G1 X83.484 Y99.968 E20.78047
G1 X83.52 Y99.312 E20.81325
G1 X83.737 Y97.247 E20.91684
G1 X83.853 Y96.53 E20.95307
G1 X84.025 Y95.894 E20.98594
G1 X84.667 Y93.922 E21.08941
G1 X84.93 Y93.245 E21.12564
G1 X85.226 Y92.666 E21.15809
G1 X86.26 Y90.874 E21.26131
G1 X86.657 Y90.266 E21.29753
G1 X87.071 Y89.758 E21.33023
G1 X88.458 Y88.217 E21.43366
G0 F3600 X88.756 Y88.484
G1 F1800 X89.256 Y87.989 E21.46877
G1 X89.722 Y87.614 E21.49861
G1 X91.403 Y86.394 E21.60223
G1 X91.996 Y86.014 E21.63737
G1 X92.524 Y85.747 E21.66689
G1 X94.414 Y84.906 E21.77009
G1 X95.073 Y84.657 E21.80524
G1 X95.645 Y84.507 E21.83474
G1 X97.676 Y84.075 E21.93834
G1 X98.372 Y83.968 E21.97347
G1 X98.966 Y83.939 E22.00314
G1 X101.034 Y83.939 E22.10631
G1 X101.737 Y83.979 E22.14144
G1 X102.324 Y84.075 E22.17112
G1 X104.355 Y84.507 E22.27471
G1 X105.034 Y84.692 E22.30982
G1 X105.586 Y84.906 E22.33936
G1 X107.476 Y85.747 E22.44256
G1 X108.101 Y86.07 E22.47766
G1 X108.597 Y86.394 E22.50722
G1 X110.278 Y87.614 E22.61084
G1 X110.823 Y88.059 E22.64595
G1 X111.244 Y88.484 E22.67579
G1 X112.631 Y90.025 E22.77923
G1 X113.072 Y90.574 E22.81436
G1 X113.393 Y91.074 E22.844
G1 X114.427 Y92.866 E22.94722
G1 X114.744 Y93.495 E22.98236
G1 X114.952 Y94.046 E23.01175
G1 X115.594 Y96.018 E23.11521
G1 X115.774 Y96.698 E23.1503
G1 X115.865 Y97.288 E23.18009
G1 X116.082 Y99.349 E23.28348
G1 X116.116 Y100.052 E23.31859
G1 X116.082 Y100.646 E23.34828
G1 X115.865 Y102.71 E23.45182
G1 X115.752 Y103.405 E23.48695
G1 X115.594 Y103.981 E23.51675
G1 X114.952 Y105.953 E23.62021
G1 X114.697 Y106.609 E23.65533
G1 X114.428 Y107.131 E23.68462
G1 X113.394 Y108.924 E23.78788
G1 X113.008 Y109.513 E23.82302
G1 X112.631 Y109.975 E23.85277
G1 X111.244 Y111.516 E23.9562
G1 X110.744 Y112.011 E23.9913
G1 X110.277 Y112.386 E24.02119
G1 X108.597 Y113.605 E24.12474
G1 X108.005 Y113.986 E24.15986
G1 X107.478 Y114.251 E24.18929
G1 X105.587 Y115.093 E24.29256
G1 X104.929 Y115.342 E24.32766
G1 X104.355 Y115.493 E24.35728
G1 X102.324 Y115.925 E24.46087
G1 X101.628 Y116.032 E24.496
G1 X101.034 Y116.061 E24.52567
G1 X98.966 Y116.061 E24.62884
G1 X98.263 Y116.021 E24.66397
G1 X97.676 Y115.925 E24.69365
G1 X95.645 Y115.493 E24.79724
G1 X94.966 Y115.308 E24.83235
G1 X94.413 Y115.093 E24.86195
G1 X92.522 Y114.251 E24.96523
G1 X91.896 Y113.928 E25.00037
G1 X91.403 Y113.605 E25.02977
G1 X89.723 Y112.386 E25.13333
G1 X89.177 Y111.941 E25.16847
G1 X88.756 Y111.516 E25.19832
G1 X87.369 Y109.975 E25.30175
G1 X86.928 Y109.426 E25.33688
G1 X86.606 Y108.924 E25.36664
G1 X85.572 Y107.131 E25.4699
G1 X85.256 Y106.502 E25.50502
G1 X85.048 Y105.953 E25.53431
G1 X84.406 Y103.981 E25.63777
G1 X84.226 Y103.301 E25.67287
G1 X84.135 Y102.712 E25.7026
G1 X83.918 Y100.652 E25.80594
G1 X83.884 Y99.948 E25.84111
G1 X83.918 Y99.354 E25.87079
G1 X84.135 Y97.289 E25.97438
G1 X84.248 Y96.594 E26.00951
G1 X84.406 Y96.018 E26.03931
G1 X85.048 Y94.046 E26.14277
G1 X85.303 Y93.39 E26.17789
G1 X85.573 Y92.866 E26.2073
G1 X86.607 Y91.074 E26.31052
G1 X86.993 Y90.486 E26.34561
G1 X87.369 Y90.025 E26.37529
G1 X88.756 Y88.484 E26.47872
G0 F3600 X89.053 Y88.752
G1 F1800 X89.537 Y88.273 E26.5127
G1 X89.957 Y87.938 E26.5395
G1 X91.638 Y86.718 E26.64312
G1 X92.212 Y86.351 E26.67711
G1 X92.687 Y86.113 E26.70362
G1 X94.577 Y85.272 E26.80683
G1 X95.214 Y85.032 E26.84079
G1 X95.728 Y84.898 E26.86729
G1 X97.759 Y84.466 E26.97088
G1 X98.432 Y84.364 E27.00484
G1 X98.966 Y84.339 E27.03151
G1 X101.034 Y84.339 E27.13468
G1 X101.714 Y84.379 E27.16867
G1 X102.241 Y84.466 E27.19532
G1 X104.272 Y84.898 E27.29891
G1 X104.928 Y85.078 E27.33285
G1 X105.423 Y85.272 E27.35937
G1 X107.313 Y86.113 E27.46258
G1 X107.918 Y86.426 E27.49656
G1 X108.362 Y86.718 E27.52307
G1 X110.043 Y87.938 E27.6267
G1 X110.569 Y88.37 E27.66066
G1 X110.947 Y88.752 E27.68747
G1 X112.334 Y90.293 E27.7909
G1 X112.759 Y90.825 E27.82488
G1 X113.047 Y91.274 E27.85149
G1 X114.081 Y93.066 E27.95471
G1 X114.386 Y93.675 E27.98869
G1 X114.572 Y94.17 E28.01507
G1 X115.214 Y96.142 E28.11853
G1 X115.387 Y96.8 E28.15248
G1 X115.467 Y97.33 E28.17922
G1 X115.684 Y99.391 E28.28261
G1 X115.716 Y100.071 E28.31657
G1 X115.684 Y100.604 E28.34321
G1 X115.467 Y102.668 E28.44675
G1 X115.356 Y103.34 E28.48074
G1 X115.214 Y103.857 E28.50748
G1 X114.572 Y105.829 E28.61095
G1 X114.324 Y106.463 E28.64491
G1 X114.081 Y106.932 E28.67127
G1 X113.047 Y108.725 E28.77453
G1 X112.673 Y109.293 E28.80846
G1 X112.334 Y109.707 E28.83515
G1 X110.947 Y111.248 E28.93859
G1 X110.463 Y111.727 E28.97256
G1 X110.042 Y112.062 E28.9994
G1 X108.362 Y113.281 E29.10296
G1 X107.789 Y113.648 E29.13691
G1 X107.315 Y113.885 E29.16335
G1 X105.424 Y114.727 E29.26662
G1 X104.787 Y114.967 E29.30058
G1 X104.272 Y115.102 E29.32714
G1 X102.241 Y115.534 E29.43073
G1 X101.568 Y115.636 E29.46469
G1 X101.034 Y115.661 E29.49136
G1 X98.966 Y115.661 E29.59454
G1 X98.286 Y115.621 E29.62852
G1 X97.759 Y115.534 E29.65517
G1 X95.728 Y115.102 E29.75876
G1 X95.072 Y114.922 E29.7927
G1 X94.576 Y114.727 E29.81929
G1 X92.685 Y113.885 E29.92256
G1 X92.08 Y113.572 E29.95655
G1 X91.638 Y113.281 E29.98295
G1 X89.958 Y112.062 E30.0865
