;FLAVOR:Marlin
;TIME:6666
;Filament used: 0m
;Layer height: 0.1

;Generated with Cura_SteamEngine master
M190 S60
M104 S215
M109 S215
M82 ; absolute extrusion mode
G21 ;metric values
G90 ;absolute positioning
M82 ;set extruder to absolute mode
M107 ;start with the fan off
G28 X0 Y0 ;move X/Y to min endstops
G28 Z0 ;move Z to min endstops
G1 Z15.0 F9000 ;move the platform down 15mm
G92 E0 ;zero the extruded length
G1 F200 E3 ;extrude 3mm of feed stock
G92 E0 ;zero the extruded length again
G1 F9000
;Put printing message on LCD screen
M117 Printing...
;LAYER_COUNT:148
;LAYER:0
M107
G0 F3600 X90.914 Y91.128 Z0.3
;TYPE:SKIRT
G1 F1800 X91.471 Y90.569 E0.03937
G1 X92.129 Y90.035 E0.08165
G1 X92.964 Y89.429 E0.13312
G1 X93.625 Y88.998 E0.17249
G1 X94.374 Y88.616 E0.21444
G1 X95.309 Y88.2 E0.26549
G1 X96.046 Y87.915 E0.30492
G1 X96.854 Y87.697 E0.34667
G1 X97.863 Y87.482 E0.39814
G1 X98.643 Y87.357 E0.43755
G1 X99.489 Y87.311 E0.47982
G1 X100.511 Y87.311 E0.53081
G1 X101.3 Y87.351 E0.57022
G1 X102.137 Y87.482 E0.61249
G1 X103.146 Y87.697 E0.66395
G1 X103.909 Y87.901 E0.70336
G1 X104.691 Y88.2 E0.74513
G1 X105.626 Y88.616 E0.79618
G1 X106.33 Y88.973 E0.83556
G1 X107.036 Y89.429 E0.87749
G1 X107.871 Y90.035 E0.92897
G1 X108.486 Y90.531 E0.96839
G1 X109.086 Y91.128 E1.01061
G1 X109.774 Y91.892 E1.06191
G1 X110.272 Y92.505 E1.10131
G1 X110.737 Y93.218 E1.14378
G1 X111.248 Y94.105 E1.19485
G1 X111.607 Y94.809 E1.23427
G1 X111.904 Y95.58 E1.27549
G1 X112.223 Y96.558 E1.32682
G1 X112.43 Y97.32 E1.36621
G1 X112.565 Y98.157 E1.40851
G1 X112.673 Y99.178 E1.45973
G1 X112.716 Y99.966 E1.4991
G1 X112.673 Y100.816 E1.54156
G1 X112.565 Y101.84 E1.59293
G1 X112.443 Y102.62 E1.63232
G1 X112.223 Y103.441 E1.67473
G1 X111.904 Y104.419 E1.72605
G1 X111.622 Y105.156 E1.76542
G1 X111.25 Y105.89 E1.80647
G1 X110.739 Y106.778 E1.85759
G1 X110.311 Y107.442 E1.897
G1 X109.774 Y108.108 E1.93968
G1 X109.086 Y108.872 E1.99097
G1 X108.529 Y109.431 E2.03034
G1 X107.87 Y109.966 E2.07269
G1 X107.036 Y110.571 E2.1241
G1 X106.374 Y111.001 E2.16348
G1 X105.63 Y111.382 E2.20518
G1 X104.694 Y111.799 E2.2563
G1 X103.958 Y112.083 E2.29566
G1 X103.146 Y112.303 E2.33763
G1 X102.137 Y112.518 E2.3891
G1 X101.357 Y112.643 E2.42851
G1 X100.511 Y112.689 E2.47078
G1 X99.489 Y112.689 E2.52177
G1 X98.7 Y112.649 E2.56118
G1 X97.863 Y112.518 E2.60345
G1 X96.854 Y112.303 E2.65492
G1 X96.091 Y112.099 E2.69432
G1 X95.306 Y111.799 E2.73625
G1 X94.37 Y111.382 E2.78737
G1 X93.666 Y111.024 E2.82677
G1 X92.964 Y110.571 E2.86846
G1 X92.13 Y109.966 E2.91986
G1 X91.515 Y109.47 E2.95928
G1 X90.914 Y108.872 E3.00158
G1 X90.226 Y108.108 E3.05287
G1 X89.728 Y107.495 E3.09227
G1 X89.261 Y106.778 E3.13496
G1 X88.75 Y105.89 E3.18608
G1 X88.392 Y105.187 E3.22543
G1 X88.096 Y104.419 E3.2665
G1 X87.777 Y103.441 E3.31782
G1 X87.57 Y102.679 E3.35721
G1 X87.435 Y101.843 E3.39946
G1 X87.327 Y100.823 E3.45064
G1 X87.284 Y100.035 E3.49001
G1 X87.327 Y99.185 E3.53247
G1 X87.435 Y98.16 E3.58389
G1 X87.557 Y97.38 E3.62328
G1 X87.777 Y96.558 E3.66573
G1 X88.096 Y95.58 E3.71705
G1 X88.378 Y94.843 E3.75642
G1 X88.752 Y94.105 E3.7977
G1 X89.263 Y93.218 E3.84877
G1 X89.692 Y92.555 E3.88817
G1 X90.226 Y91.892 E3.93064
G1 X90.914 Y91.128 E3.98193
G0 F3600 X91.211 Y91.396
G1 F1800 X91.755 Y90.852 E4.02031
G1 X92.364 Y90.359 E4.0594
G1 X93.199 Y89.753 E4.11088
G1 X93.844 Y89.334 E4.14925
G1 X94.537 Y88.981 E4.18805
G1 X95.472 Y88.565 E4.23911
G1 X96.19 Y88.289 E4.27748
G1 X96.938 Y88.088 E4.31613
G1 X97.947 Y87.873 E4.36759
G1 X98.706 Y87.752 E4.40594
G1 X99.489 Y87.711 E4.44506
G1 X100.511 Y87.711 E4.49605
G1 X101.279 Y87.751 E4.53441
G1 X102.053 Y87.873 E4.5735
G1 X103.062 Y88.088 E4.62497
G1 X103.805 Y88.288 E4.66336
G1 X104.528 Y88.565 E4.70199
G1 X105.463 Y88.981 E4.75304
G1 X106.149 Y89.33 E4.79144
G1 X106.801 Y89.753 E4.83022
G1 X107.636 Y90.359 E4.88169
G1 X108.235 Y90.843 E4.92011
G1 X108.789 Y91.396 E4.95916
G1 X109.477 Y92.16 E5.01046
G1 X109.961 Y92.758 E5.04884
G1 X110.39 Y93.418 E5.08811
G1 X110.901 Y94.305 E5.13918
G1 X111.25 Y94.991 E5.17758
G1 X111.524 Y95.704 E5.21569
G1 X111.843 Y96.682 E5.26701
G1 X112.043 Y97.425 E5.3054
G1 X112.167 Y98.199 E5.34451
G1 X112.275 Y99.22 E5.39573
G1 X112.316 Y99.988 E5.4341
G1 X112.275 Y100.774 E5.47337
G1 X112.167 Y101.798 E5.52474
G1 X112.047 Y102.558 E5.56312
G1 X111.843 Y103.317 E5.60233
G1 X111.524 Y104.295 E5.65366
G1 X111.248 Y105.013 E5.69203
G1 X110.903 Y105.691 E5.72999
G1 X110.392 Y106.579 E5.7811
G1 X109.974 Y107.225 E5.81949
G1 X109.477 Y107.84 E5.85894
G1 X108.789 Y108.604 E5.91023
G1 X108.245 Y109.148 E5.94861
G1 X107.635 Y109.642 E5.98777
G1 X106.801 Y110.247 E6.03918
G1 X106.156 Y110.666 E6.07755
G1 X105.467 Y111.017 E6.11613
G1 X104.531 Y111.434 E6.16725
G1 X103.814 Y111.71 E6.20558
G1 X103.062 Y111.912 E6.24443
G1 X102.053 Y112.127 E6.2959
G1 X101.294 Y112.248 E6.33424
G1 X100.511 Y112.289 E6.37336
G1 X99.489 Y112.289 E6.42435
G1 X98.721 Y112.249 E6.46271
G1 X97.947 Y112.127 E6.50181
G1 X96.938 Y111.912 E6.55328
G1 X96.195 Y111.712 E6.59166
G1 X95.469 Y111.434 E6.63045
G1 X94.533 Y111.017 E6.68157
G1 X93.847 Y110.667 E6.71999
G1 X93.199 Y110.247 E6.75852
G1 X92.365 Y109.642 E6.80992
G1 X91.767 Y109.159 E6.84827
G1 X91.211 Y108.604 E6.88746
G1 X90.523 Y107.84 E6.93876
G1 X90.039 Y107.242 E6.97714
G1 X89.608 Y106.579 E7.01659
G1 X89.097 Y105.691 E7.06771
G1 X88.749 Y105.005 E7.10608
G1 X88.476 Y104.295 E7.14403
G1 X88.157 Y103.317 E7.19536
G1 X87.957 Y102.574 E7.23374
G1 X87.833 Y101.801 E7.2728
G1 X87.725 Y100.781 E7.32397
G1 X87.684 Y100.013 E7.36234
G1 X87.725 Y99.227 E7.40161
G1 X87.833 Y98.202 E7.45303
G1 X87.953 Y97.442 E7.49142
G1 X88.157 Y96.682 E7.53068
G1 X88.476 Y95.704 E7.582
G1 X88.752 Y94.986 E7.62038
G1 X89.099 Y94.305 E7.65851
G1 X89.61 Y93.418 E7.70958
G1 X90.028 Y92.772 E7.74797
G1 X90.523 Y92.16 E7.78724
G1 X91.211 Y91.396 E7.83853
G0 F3600 X91.508 Y91.664
G1 F1800 X92.038 Y91.135 E7.87589
G1 X92.598 Y90.683 E7.91179
G1 X93.433 Y90.077 E7.96327
G1 X94.061 Y89.67 E8.0006
G1 X94.699 Y89.346 E8.0363
G1 X95.634 Y88.93 E8.08736
G1 X96.333 Y88.663 E8.12469
G1 X97.021 Y88.48 E8.1602
G1 X98.03 Y88.265 E8.21167
G1 X98.769 Y88.148 E8.249
G1 X99.489 Y88.111 E8.28497
G1 X100.511 Y88.111 E8.33596
G1 X101.258 Y88.151 E8.37328
G1 X101.97 Y88.265 E8.40925
G1 X102.979 Y88.48 E8.46072
G1 X103.701 Y88.674 E8.49802
G1 X104.366 Y88.93 E8.53357
G1 X105.301 Y89.346 E8.58463
G1 X105.967 Y89.687 E8.62196
G1 X106.567 Y90.077 E8.65766
G1 X107.402 Y90.683 E8.70913
G1 X107.983 Y91.154 E8.74645
G1 X108.492 Y91.664 E8.78239
G1 X109.18 Y92.428 E8.83369
G1 X109.65 Y93.01 E8.87101
G1 X110.043 Y93.618 E8.90713
G1 X110.554 Y94.505 E8.9582
G1 X110.893 Y95.172 E8.99553
G1 X111.144 Y95.828 E9.03057
G1 X111.463 Y96.806 E9.08189
G1 X111.657 Y97.529 E9.11924
G1 X111.769 Y98.241 E9.1552
G1 X111.877 Y99.262 E9.20642
G1 X111.916 Y100.009 E9.24374
G1 X111.877 Y100.732 E9.27986
G1 X111.769 Y101.756 E9.33123
G1 X111.651 Y102.495 E9.36857
G1 X111.463 Y103.193 E9.40463
G1 X111.144 Y104.171 E9.45595
G1 X110.874 Y104.868 E9.49325
G1 X110.556 Y105.491 E9.52814
G1 X110.045 Y106.379 E9.57926
G1 X109.638 Y107.007 E9.61659
G1 X109.18 Y107.572 E9.65288
G1 X108.492 Y108.336 E9.70417
G1 X107.962 Y108.865 E9.74153
G1 X107.4 Y109.318 E9.77754
G1 X106.566 Y109.923 E9.82895
G1 X105.938 Y110.329 E9.86625
G1 X105.305 Y110.651 E9.90169
G1 X104.369 Y111.068 E9.95281
G1 X103.67 Y111.336 E9.99016
G1 X102.979 Y111.52 E10.02583
G1 X101.97 Y111.735 E10.0773
G1 X101.231 Y111.852 E10.11463
G1 X100.511 Y111.889 E10.1506
G1 X99.489 Y111.889 E10.20159
G1 X98.742 Y111.849 E10.23891
G1 X98.03 Y111.735 E10.27488
G1 X97.021 Y111.52 E10.32635
G1 X96.299 Y111.326 E10.36365
G1 X95.631 Y111.068 E10.39938
G1 X94.695 Y110.651 E10.4505
G1 X94.029 Y110.311 E10.4878
G1 X93.434 Y109.923 E10.52324
G1 X92.6 Y109.318 E10.57465
G1 X92.018 Y108.847 E10.612
G1 X91.508 Y108.336 E10.64802
G1 X90.82 Y107.572 E10.69931
G1 X90.35 Y106.99 E10.73663
G1 X89.955 Y106.379 E10.77293
G1 X89.444 Y105.491 E10.82404
G1 X89.106 Y104.824 E10.86135
G1 X88.856 Y104.171 E10.89623
G1 X88.537 Y103.193 E10.94756
G1 X88.343 Y102.47 E10.9849
G1 X88.231 Y101.759 E11.02081
G1 X88.123 Y100.739 E11.07199
G1 X88.084 Y99.992 E11.1093
G1 X88.123 Y99.268 E11.14548
G1 X88.231 Y98.243 E11.1969
G1 X88.349 Y97.505 E11.23418
G1 X88.537 Y96.806 E11.2703
G1 X88.856 Y95.828 E11.32162
G1 X89.126 Y95.131 E11.35891
G1 X89.446 Y94.505 E11.39399
G1 X89.957 Y93.618 E11.44506
G1 X90.364 Y92.99 E11.48239
G1 X90.82 Y92.428 E11.5185
G1 X91.508 Y91.664 E11.56979
G0 F3600 X91.806 Y91.931
G1 F1800 X92.321 Y91.419 E11.60602
G1 X92.833 Y91.006 E11.63884
G1 X93.668 Y90.4 E11.69031
G1 X94.279 Y90.007 E11.72656
G1 X94.862 Y89.712 E11.75916
G1 X95.797 Y89.296 E11.81021
G1 X96.476 Y89.038 E11.84645
G1 X97.105 Y88.871 E11.87892
G1 X98.114 Y88.656 E11.93039
G1 X98.831 Y88.544 E11.96659
G1 X99.489 Y88.511 E11.99946
G1 X100.511 Y88.511 E12.05045
G1 X101.236 Y88.551 E12.08667
G1 X101.886 Y88.656 E12.11952
G1 X102.895 Y88.871 E12.17099
G1 X103.596 Y89.061 E12.20723
G1 X104.203 Y89.296 E12.2397
G1 X105.138 Y89.712 E12.29076
G1 X105.784 Y90.043 E12.32697
G1 X106.332 Y90.4 E12.3596
G1 X107.167 Y91.006 E12.41107
G1 X107.73 Y91.465 E12.44731
G1 X108.194 Y91.931 E12.48012
G1 X108.882 Y92.695 E12.53142
G1 X109.338 Y93.261 E12.56768
G1 X109.697 Y93.817 E12.6007
G1 X110.208 Y94.704 E12.65177
G1 X110.535 Y95.353 E12.68802
G1 X110.764 Y95.952 E12.72002
G1 X111.083 Y96.93 E12.77134
G1 X111.27 Y97.632 E12.80758
G1 X111.371 Y98.283 E12.84045
G1 X111.479 Y99.304 E12.89167
G1 X111.516 Y100.029 E12.92789
G1 X111.48 Y100.69 E12.96092
G1 X111.372 Y101.714 E13.01229
G1 X111.256 Y102.431 E13.04852
G1 X111.083 Y103.069 E13.0815
G1 X110.764 Y104.047 E13.13283
G1 X110.501 Y104.724 E13.16906
G1 X110.209 Y105.292 E13.20092
G1 X109.698 Y106.18 E13.25204
G1 X109.302 Y106.789 E13.28828
G1 X108.882 Y107.305 E13.32147
G1 X108.194 Y108.069 E13.37277
G1 X107.679 Y108.581 E13.409
G1 X107.165 Y108.994 E13.44189
G1 X106.331 Y109.599 E13.4933
G1 X105.721 Y109.993 E13.52953
G1 X105.142 Y110.286 E13.5619
G1 X104.206 Y110.703 E13.61302
G1 X103.527 Y110.961 E13.64926
G1 X102.895 Y111.129 E13.68189
G1 X101.886 Y111.344 E13.73335
G1 X101.169 Y111.456 E13.76956
G1 X100.511 Y111.489 E13.80243
G1 X99.489 Y111.489 E13.85342
G1 X98.764 Y111.449 E13.88964
G1 X98.114 Y111.344 E13.92249
G1 X97.105 Y111.129 E13.97396
G1 X96.404 Y110.939 E14.0102
G1 X95.794 Y110.703 E14.04283
G1 X94.858 Y110.286 E14.09395
G1 X94.212 Y109.954 E14.13018
G1 X93.669 Y109.599 E14.16255
G1 X92.835 Y108.994 E14.21395
G1 X92.271 Y108.536 E14.2502
G1 X91.806 Y108.069 E14.28308
G1 X91.118 Y107.305 E14.33437
G1 X90.662 Y106.739 E14.37064
G1 X90.302 Y106.18 E14.40381
G1 X89.791 Y105.292 E14.45492
G1 X89.463 Y104.643 E14.4912
G1 X89.236 Y104.047 E14.52302
G1 X88.917 Y103.069 E14.57434
G1 X88.73 Y102.367 E14.61059
G1 X88.629 Y101.717 E14.6434
G1 X88.521 Y100.697 E14.69458
G1 X88.484 Y99.972 E14.73079
G1 X88.52 Y99.31 E14.76387
G1 X88.628 Y98.285 E14.81529
G1 X88.744 Y97.568 E14.85153
G1 X88.917 Y96.93 E14.88451
G1 X89.236 Y95.952 E14.93583
G1 X89.499 Y95.275 E14.97206
G1 X89.792 Y94.704 E15.00408
G1 X90.303 Y93.817 E15.05515
G1 X90.7 Y93.209 E15.09138
G1 X91.118 Y92.695 E15.12443
G1 X91.806 Y91.931 E15.17573
G0 F3600 X92.103 Y92.199
G1 F1800 X92.603 Y91.704 E15.21083
G1 X93.068 Y91.33 E15.2406
G1 X93.903 Y90.724 E15.29207
G1 X94.496 Y90.344 E15.32721
G1 X95.025 Y90.077 E15.35677
G1 X95.96 Y89.661 E15.40783
G1 X96.618 Y89.412 E15.44293
G1 X97.188 Y89.262 E15.47233
G1 X98.197 Y89.047 E15.5238
G1 X98.893 Y88.94 E15.55894
G1 X99.489 Y88.911 E15.58871
G1 X100.511 Y88.911 E15.63969
G1 X101.214 Y88.951 E15.67482
G1 X101.803 Y89.047 E15.7046
G1 X102.812 Y89.262 E15.75606
G1 X103.491 Y89.448 E15.79119
G1 X104.04 Y89.661 E15.82057
G1 X104.975 Y90.077 E15.87162
G1 X105.601 Y90.4 E15.90677
G1 X106.097 Y90.724 E15.93632
G1 X106.932 Y91.33 E15.9878
G1 X107.477 Y91.775 E16.0229
G1 X107.897 Y92.199 E16.05267
G1 X108.585 Y92.963 E16.10397
G1 X109.026 Y93.512 E16.1391
G1 X109.35 Y94.017 E16.16903
G1 X109.861 Y94.904 E16.22011
G1 X110.177 Y95.533 E16.25522
G1 X110.383 Y96.076 E16.2842
G1 X110.702 Y97.054 E16.33552
G1 X110.882 Y97.735 E16.37066
G1 X110.974 Y98.325 E16.40045
G1 X111.082 Y99.346 E16.45168
G1 X111.116 Y100.049 E16.48679
G1 X111.082 Y100.648 E16.51672
G1 X110.974 Y101.672 E16.56809
G1 X110.86 Y102.367 E16.60323
G1 X110.702 Y102.945 E16.63312
G1 X110.383 Y103.923 E16.68445
G1 X110.127 Y104.578 E16.71953
G1 X109.863 Y105.092 E16.74836
G1 X109.352 Y105.98 E16.79947
G1 X108.967 Y106.57 E16.83462
G1 X108.585 Y107.037 E16.86472
G1 X107.897 Y107.801 E16.91602
G1 X107.397 Y108.296 E16.95112
G1 X106.931 Y108.671 E16.98096
G1 X106.097 Y109.276 E17.03236
G1 X105.504 Y109.656 E17.0675
G1 X104.979 Y109.92 E17.09682
G1 X104.043 Y110.337 E17.14794
G1 X103.385 Y110.587 E17.18306
G1 X102.812 Y110.738 E17.21262
G1 X101.803 Y110.953 E17.26409
G1 X101.107 Y111.06 E17.29922
G1 X100.511 Y111.089 E17.32899
G1 X99.489 Y111.089 E17.37998
G1 X98.786 Y111.049 E17.41511
G1 X98.197 Y110.953 E17.44488
G1 X97.188 Y110.738 E17.49635
G1 X96.509 Y110.552 E17.53147
G1 X95.957 Y110.337 E17.56103
G1 X95.021 Y109.92 E17.61215
G1 X94.395 Y109.598 E17.64727
G1 X93.903 Y109.276 E17.67661
G1 X93.069 Y108.671 E17.72801
G1 X92.524 Y108.226 E17.76311
G1 X92.103 Y107.801 E17.79296
G1 X91.415 Y107.037 E17.84425
G1 X90.974 Y106.488 E17.87938
G1 X90.648 Y105.98 E17.9095
G1 X90.137 Y105.092 E17.96061
G1 X89.821 Y104.463 E17.99573
G1 X89.617 Y103.923 E18.02453
G1 X89.298 Y102.945 E18.07585
G1 X89.118 Y102.264 E18.11099
G1 X89.026 Y101.675 E18.14074
G1 X88.918 Y100.655 E18.19191
G1 X88.884 Y99.952 E18.22702
G1 X88.918 Y99.352 E18.257
G1 X89.026 Y98.327 E18.30842
G1 X89.14 Y97.633 E18.34351
G1 X89.298 Y97.054 E18.37346
G1 X89.617 Y96.076 E18.42478
G1 X89.873 Y95.421 E18.45986
G1 X90.139 Y94.904 E18.48887
G1 X90.65 Y94.017 E18.53994
G1 X91.035 Y93.428 E18.57505
G1 X91.415 Y92.963 E18.60501
G1 X92.103 Y92.199 E18.6563
G0 F3600 X92.4 Y92.467
G1 F1800 X92.885 Y91.988 E18.69031
G1 X93.303 Y91.654 E18.717
G1 X94.138 Y91.048 E18.76848
G1 X94.712 Y90.681 E18.80247
G1 X95.187 Y90.443 E18.82897
G1 X96.122 Y90.027 E18.88003
G1 X96.76 Y89.787 E18.91404
G1 X97.271 Y89.653 E18.94039
G1 X98.28 Y89.438 E18.99186
G1 X98.953 Y89.336 E19.02582
G1 X99.489 Y89.311 E19.05259
G1 X100.511 Y89.311 E19.10358
G1 X101.191 Y89.351 E19.13756
G1 X101.72 Y89.438 E19.16431
G1 X102.729 Y89.653 E19.21578
G1 X103.385 Y89.834 E19.24973
G1 X103.878 Y90.027 E19.27614
G1 X104.813 Y90.443 E19.3272
G1 X105.417 Y90.756 E19.36114
G1 X105.862 Y91.048 E19.38769
G1 X106.697 Y91.654 E19.43916
G1 X107.223 Y92.086 E19.47312
G1 X107.6 Y92.467 E19.49986
G1 X108.288 Y93.231 E19.55116
G1 X108.713 Y93.763 E19.58513
G1 X109.004 Y94.217 E19.61203
G1 X109.515 Y95.104 E19.6631
G1 X109.819 Y95.713 E19.69706
G1 X110.003 Y96.2 E19.72303
G1 X110.322 Y97.178 E19.77436
G1 X110.495 Y97.837 E19.80835
G1 X110.576 Y98.367 E19.8351
G1 X110.684 Y99.388 E19.88632
G1 X110.716 Y100.068 E19.92028
G1 X110.684 Y100.606 E19.94717
G1 X110.576 Y101.63 E19.99854
G1 X110.465 Y102.302 E20.03252
G1 X110.322 Y102.821 E20.05938
G1 X110.003 Y103.799 E20.1107
G1 X109.754 Y104.432 E20.14464
G1 X109.516 Y104.893 E20.17052
G1 X109.005 Y105.781 E20.22164
G1 X108.631 Y106.35 E20.25561
G1 X108.288 Y106.769 E20.28262
G1 X107.6 Y107.533 E20.33392
G1 X107.115 Y108.012 E20.36792
G1 X106.696 Y108.347 E20.39469
G1 X105.862 Y108.952 E20.44609
G1 X105.288 Y109.319 E20.48008
G1 X104.816 Y109.555 E20.50641
G1 X103.88 Y109.972 E20.55753
G1 X103.243 Y110.212 E20.59149
G1 X102.729 Y110.347 E20.618
G1 X101.72 Y110.562 E20.66947
G1 X101.047 Y110.664 E20.70343
G1 X100.511 Y110.689 E20.7302
G1 X99.489 Y110.689 E20.78119
G1 X98.809 Y110.649 E20.81518
G1 X98.28 Y110.562 E20.84192
G1 X97.271 Y110.347 E20.89339
G1 X96.615 Y110.166 E20.92734
G1 X96.12 Y109.972 E20.95387
G1 X95.184 Y109.555 E21.00499
G1 X94.579 Y109.242 E21.03897
G1 X94.138 Y108.952 E21.0653
G1 X93.304 Y108.347 E21.11671
G1 X92.778 Y107.915 E21.15067
G1 X92.4 Y107.533 E21.17748
G1 X91.712 Y106.769 E21.22877
G1 X91.287 Y106.237 E21.26274
