;FLAVOR:Marlin
;TIME:6666
;Filament used: 0m
;Layer height: 0.1

;Generated with Cura_SteamEngine master
M190 S60
M104 S210
M109 S210
G21 ;metric values
G90 ;absolute positioning
M82 ;set extruder to absolute mode
M107 ;start with the fan off
G28 X0 Y0 ;move X/Y to min endstops
G28 Z0 ;move Z to min endstops
G1 Z15.0 F9000 ;move the platform down 15mm
G92 E0 ;zero the extruded length
G1 F200 E3 ;extrude 3mm of feed stock
G92 E0 ;zero the extruded length again
G1 F9000
;Put printing message on LCD screen
M117 Printing...
G0 F7200 X180 Y181.101 Z0.3
G1 F1800 X220 Y181.101 E1.99561
G1 X220 Y208.709 E3.37298
G1 X180 Y208.709 E5.36858
G1 X180 Y181.101 E6.74595
;LAYER:0
;TYPE:SKIRT
G1 F1500 E0.24595
G0 F2400 X215 Y186.101
G1 F1500 E6.74595
G1 F300 X215 Y203.709 E7.66588
G1 X185 Y203.709 E9.23323
G1 X185 Y186.101 E10.15316
G1 X215 Y186.101 E11.7205
;TYPE:FILL
;TYPE:SUPPORT
G1 F1500 E5.2205
G0 F2400 X215 Y200.709
G1 F1500 E11.7205
G1 F300 X212 Y200.709 E11.87724
G1 X207 Y203.709 E12.18188
G1 X207 Y200.709 E12.33861
G1 X202 Y203.709 E12.64325
G1 X202 Y200.709 E12.79998
G1 X197 Y203.709 E13.10462
G1 X197 Y200.709 E13.26136
G1 X192 Y203.709 E13.56599
G1 X192 Y200.709 E13.72273
G1 X185 Y197.709 E14.12061
G1 X188 Y197.709 E14.27735
G1 X185 Y192.709 E14.58198
G1 X188 Y192.709 E14.73872
G1 X191.461 Y186.101 E15.12844
G1 X191.461 Y189.101 E15.28518
G1 X196.461 Y186.101 E15.58981
G1 X196.461 Y189.101 E15.74655
G1 X201.461 Y186.101 E16.05118
G1 X201.461 Y189.101 E16.20792
G1 X206.461 Y186.101 E16.51256
G1 X206.461 Y189.101 E16.66929
G1 X211.461 Y186.101 E16.97393
G1 X211.461 Y189.101 E17.13066
G1 X215 Y194.071 E17.44942
G1 X212 Y194.071 E17.60616
;TYPE:WALL-INNER
G1 X212 Y200.709 E17.95296
G1 X207 Y200.709 E18.21418
G1 X202 Y200.709 E18.47541
G1 X197 Y200.709 E18.73663
G1 X192 Y200.709 E18.99786
G1 X188 Y197.709 E19.25908
G1 X188 Y192.709 E19.52031
G1 X191.461 Y189.101 E19.78151
G1 X196.461 Y189.101 E20.04274
G1 X201.461 Y189.101 E20.30396
G1 X206.461 Y189.101 E20.56519
G1 X211.461 Y189.101 E20.82641
G1 X212 Y194.071 E21.08759
;TYPE:SUPPORT
G0 F2400 X211.753 Y191.802
G1 F300 X209 Y192.101 E21.23227
G1 X212 Y197.101 E21.5369
G1 X209 Y197.101 E21.69364
G1 X204.038 Y200.709 E22.01416
G1 X204.038 Y197.709 E22.1709
G1 X199.038 Y200.709 E22.47554
G1 X199.038 Y197.709 E22.63227
G1 X194.038 Y200.709 E22.93691
G1 X194.038 Y197.709 E23.09364
G1 X188.923 Y191.747 E23.50405
G1 X191 Y193.738 E23.65437
G1 X195.724 Y189.101 E24.0002
G1 X195.724 Y192.101 E24.15694
G1 X200.724 Y189.101 E24.46158
G1 X200.724 Y192.101 E24.61831
;TYPE:WALL-INNER
G1 X209 Y192.101 E25.05069
G1 X209 Y197.101 E25.31191
G1 X204.038 Y197.709 E25.57309
G1 X199.038 Y197.709 E25.83432
G1 X194.038 Y197.709 E26.09554
G1 X191 Y193.738 E26.35676
G1 X195.724 Y192.101 E26.61796
G1 X200.724 Y192.101 E26.87918
;TYPE:WALL-OUTER
;LAYER:1
M106 S255
;TYPE:SUPPORT
G1 F1500 E20.37918
G0 F2400 X185 Y186.101 Z3.1
G0 X185 Y186.101 Z0.3
G1 F1500 E26.87918
G1 F377.1 X184.4 Y186.101 Z4.05 E27.03704
G1 F300 X185.52 Y186.101 E27.09555
G1 X190 Y186.101 Z0.3 E27.40078
G4 P0
G1 F150 X190 Y186.101 Z0.6 E27.43213
G1 F377.1 X189.4 Y186.101 Z4.05 E27.57768
G1 F300 X190.52 Y186.101 E27.63619
G1 X195 Y186.101 Z0.3 E27.94143
G4 P0
G1 F150 X195 Y186.101 Z0.6 E27.97277
G1 F377.1 X194.4 Y186.101 Z4.05 E28.11832
G1 F300 X195.52 Y186.101 E28.17684
G1 X200 Y186.101 Z0.3 E28.48207
G4 P0
G1 F150 X200 Y186.101 Z0.6 E28.51342
G1 F377.1 X199.4 Y186.101 Z4.05 E28.65897
G1 F300 X200.52 Y186.101 E28.71748
G1 X205 Y186.101 Z0.3 E29.02272
G4 P0
G1 F150 X205 Y186.101 Z0.6 E29.05406
G1 F377.1 X204.4 Y186.101 Z4.05 E29.19961
G1 F300 X205.52 Y186.101 E29.25813
G1 X210 Y186.101 Z0.3 E29.56336
G4 P0
G1 F150 X210 Y186.101 Z0.6 E29.59471
G1 F377.1 X209.4 Y186.101 Z4.05 E29.74026
G1 F300 X210.52 Y186.101 E29.79877
G1 X215 Y186.101 Z0.3 E30.10401
G4 P0
G1 F150 X215 Y186.101 Z0.6 E30.13535
G1 F377.1 X215 Y185.501 Z4.05 E30.2809
G1 F300 X215 Y186.621 E30.33942
G1 X215 Y191.101 Z0.3 E30.64465
G4 P0
G1 F150 X215 Y191.101 Z0.6 E30.676
G1 F377.1 X215 Y190.501 Z4.05 E30.82155
G1 F300 X215 Y191.621 E30.88006
G1 X215 Y196.101 Z0.3 E31.1853
G4 P0
G1 F150 X215 Y196.101 Z0.6 E31.21664
G1 F377.1 X215 Y195.501 Z4.05 E31.36219
G1 F300 X215 Y196.621 E31.42071
G1 X215 Y201.101 Z0.3 E31.72594
G4 P0
G1 F150 X215 Y201.101 Z0.6 E31.75729
G1 F377.1 X215.511 Y200.788 Z4.05 E31.90283
G1 F300 X214.556 Y201.372 E31.96131
G1 X210.735 Y203.709 Z0.3 E32.26651
G4 P0
G1 F150 X210.735 Y203.709 Z0.6 E32.29785
G1 F377.1 X211.335 Y203.709 Z4.05 E32.4434
G1 F300 X210.215 Y203.709 E32.50192
G1 X205.735 Y203.709 Z0.3 E32.80715
G4 P0
G1 F150 X205.735 Y203.709 Z0.6 E32.8385
G1 F377.1 X206.335 Y203.709 Z4.05 E32.98405
G1 F300 X205.215 Y203.709 E33.04256
G1 X200.735 Y203.709 Z0.3 E33.3478
G4 P0
G1 F150 X200.735 Y203.709 Z0.6 E33.37914
G1 F377.1 X201.335 Y203.709 Z4.05 E33.52469
G1 F300 X200.215 Y203.709 E33.58321
G1 X195.735 Y203.709 Z0.3 E33.88844
G4 P0
G1 F150 X195.735 Y203.709 Z0.6 E33.91979
G1 F377.1 X196.335 Y203.709 Z4.05 E34.06534
G1 F300 X195.215 Y203.709 E34.12385
G1 X190.735 Y203.709 Z0.3 E34.42908
G4 P0
G1 F150 X190.735 Y203.709 Z0.6 E34.46043
G1 F377.1 X191.335 Y203.709 Z4.05 E34.60598
G1 F300 X190.215 Y203.709 E34.6645
G1 X185.735 Y203.709 Z0.3 E34.96973
G4 P0
G1 F150 X185.735 Y203.709 Z0.6 E35.00108
G1 F377.1 X185.823 Y204.302 Z4.05 E35.14662
G1 F300 X185.659 Y203.195 E35.20509
G1 X185 Y198.764 Z0.3 E35.51031
G4 P0
G1 F150 X185 Y198.764 Z0.6 E35.54166
G1 F377.1 X185 Y199.364 Z4.05 E35.68721
G1 F300 X185 Y198.244 E35.74572
G1 X185 Y193.764 Z0.3 E36.05095
G4 P0
G1 F150 X185 Y193.764 Z0.6 E36.0823
G1 F351 X185 Y194.364 Z4.05 E36.23865
;TYPE:WALL-OUTER
G1 F300 X185 Y186.101 Z3 E36.67382
G4 P100
G1 X190 Y186.101 E36.93505
G4 P100
G1 X195 Y186.101 E37.19627
G4 P100
G1 X200 Y186.101 E37.4575
G4 P100
G1 X205 Y186.101 E37.71872
G4 P100
G1 X210 Y186.101 E37.97995
G4 P100
G1 X215 Y186.101 E38.24117
G4 P100
G1 X215 Y191.101 E38.5024
G4 P100
G1 X215 Y196.101 E38.76362
G4 P100
G1 X215 Y201.101 E39.02484
G4 P100
G1 X210.735 Y203.709 E39.28603
G4 P100
G1 X205.735 Y203.709 E39.54725
G4 P100
G1 X200.735 Y203.709 E39.80848
G4 P100
G1 X195.735 Y203.709 E40.0697
G4 P100
G1 X190.735 Y203.709 E40.33093
G4 P100
G1 X185.735 Y203.709 E40.59215
G4 P100
G1 X185 Y198.764 E40.85334
G4 P100
G1 X185 Y193.764 E41.11456
G4 P100
;TYPE:FILL
;TYPE:SUPPORT
G0 F2400 X185.033 Y198.983
G1 F300 X189.202 Y199.111 Z5 E41.35623
G1 X185 Y193.542 Z3 E41.7354
G4 P200
G1 X188.565 Y194.306 Z5 E41.95266
G1 X190.297 Y186.101 Z3 E42.40306
G4 P200
G1 X190.897 Y189.373 Z5 E42.60585
G1 X185 Y193.758 Z3 E43.00374
G4 P200
G1 X192.595 Y193.027 Z5 E43.41584
G1 X196.523 Y203.709 Z3 E44.01957
G4 P200
G1 X196.083 Y194.654 Z5 E44.50459
G1 X201.523 Y203.709 Z3 E45.06629
G4 P200
G1 X201.083 Y194.654 Z5 E45.55131
G1 X206.523 Y203.709 Z3 E46.113
G4 P200
G1 X205.723 Y195.322 Z5 E46.5654
G1 X215 Y196.122 Z3 E47.06297
G4 P200
G1 X210.925 Y195.349 Z5 E47.30354
G1 X209.534 Y203.709 Z3 E47.75848
G4 P200
G1 X210.22 Y199.498 Z5 E48.00466
G1 X204.534 Y203.709 Z3 E48.3888
G4 P200
G1 X205.22 Y199.498 Z5 E48.63498
G1 X199.534 Y203.709 Z3 E49.01912
G4 P200
G1 X200.22 Y199.498 Z5 E49.2653
G1 X194.534 Y203.709 Z3 E49.64945
G4 P200
G1 X195.293 Y200.16 Z5 E49.86594
;TYPE:WALL-INNER
G1 X188 Y198.542 Z3 E50.26997
G4 P100
G1 X188 Y193.542 E50.5312
G4 P100
G1 X190.297 Y189.101 E50.79241
G4 P100
G1 X192.118 Y193.758 E51.05366
G4 P100
G1 X196.523 Y196.122 E51.31484
G4 P100
G1 X201.523 Y196.122 E51.57607
G4 P100
G1 X206.523 Y196.122 E51.83729
G4 P100
G1 X211.523 Y196.122 E52.09852
G4 P100
G1 X209.534 Y200.709 E52.35972
G4 P100
G1 X204.534 Y200.709 E52.62095
G4 P100
G1 X199.534 Y200.709 E52.88217
G4 P100
G1 X194.534 Y200.709 E53.1434
G4 P100
;TYPE:SUPPORT
G1 F1500 E46.6434
G0 F2400 X209 Y196.122
G1 F1500 E53.1434
G1 F300 X209.762 Y198.751 Z5 E53.32051
G1 X204 Y196.122 Z3 E53.66751
G4 P200
G1 X204.762 Y198.751 Z5 E53.84462
G1 X199 Y196.122 Z3 E54.19161
G4 P200
G1 X199.684 Y198.923 Z5 E54.37494
G1 X195.225 Y195.425 Z3 E54.68893
G4 P200
G1 X193.961 Y199.138 Z5 E54.91895
G1 X191.953 Y193.336 Z3 E55.2563
G4 P200
G1 X189.517 Y193.692 Z5 E55.42202
G1 X195.634 Y195.645 Z3 E55.77339
G4 P200
G1 X194.202 Y196.828 Z5 E55.91599
G1 X200.379 Y196.122 Z3 E56.2572
G4 P200
;TYPE:WALL-INNER
G1 X209 Y197.709 E56.71517
G4 P100
G1 X204 Y197.709 E56.9764
G4 P100
G1 X199 Y197.709 E57.23762
G4 P100
G1 X194 Y197.709 E57.49885
G4 P100
G1 X191 Y193.709 E57.76007
G4 P100
G1 X195.379 Y196.122 E58.02129
G4 P100
;TYPE:WALL-OUTER
G1 F1500 E51.52129
G0 F2400 X191.669 Y186.101
G1 F1500 E58.02129
G1 F300 X192.257 Y196.122 E58.54573
G4 P100
G1 X215 Y196.122 E59.73394
G4 P100
G1 X215 Y201.101 E59.99407
G4 P100
G1 X210.736 Y203.709 E60.2552
G4 P100
G1 X185.735 Y203.709 E61.56138
G4 P100
G1 X185 Y198.764 E61.82257
G4 P100
G1 X185 Y186.101 E62.48414
G4 P100
G1 X191.669 Y186.101 E62.83257
G4 P100
;LAYER:2
;TYPE:SUPPORT
G1 F1500 E56.33257
G0 F2400 X210.086 Y196.122 Z6.1
G0 X210.086 Y196.122 Z3
G1 F1500 E62.83257
G1 F372.9 X210.6 Y192.39 Z7.131 E63.06753
G1 F300 X209.498 Y193.136 E63.13705
G1 X205.086 Y196.122 Z3 E63.48926
G4 P0
G1 F150 X205.086 Y196.122 Z3.3 E63.52061
G1 F372.9 X205.6 Y192.39 Z7.131 E63.74641
G1 F300 X204.498 Y193.136 E63.81594
G1 X200.086 Y196.122 Z3 E64.16814
G4 P0
G1 F150 X200.086 Y196.122 Z3.3 E64.19949
G1 F372.9 X200.6 Y192.39 Z7.131 E64.42529
G1 F300 X199.498 Y193.136 E64.49482
G1 X195.086 Y196.122 Z3 E64.84703
G4 P0
G1 F150 X195.086 Y196.122 Z3.3 E64.87837
G1 F336 X195.111 Y193.297 Z7.131 E65.10043
G1 F300 X195.048 Y191.858 E65.17568
G1 X194.793 Y186.101 Z3 E65.54612
G4 P0
G1 F150 X194.793 Y186.101 Z3.3 E65.57746
G1 F378.7 X194.244 Y188.708 Z7.099 E65.7695
G1 F300 X195.276 Y188.187 E65.8299
G1 X199.405 Y186.101 Z3 E66.15281
G4 P0
G1 F150 X199.405 Y186.101 Z3.3 E66.18416
G1 F377 X198.805 Y186.231 Z7.099 E66.34416
G1 F300 X199.914 Y186.205 E66.40212
G1 X204.353 Y186.101 Z3 E66.71783
G4 P0
G1 F150 X204.353 Y186.101 Z3.3 E66.74918
G1 F341.4 X203.947 Y186.622 Z7.096 E66.92607
;TYPE:WALL-OUTER
G1 F300 X210.086 Y193.122 Z6 E67.39668
G4 P100
G1 X205.086 Y193.122 E67.6579
G4 P100
G1 X200.086 Y193.122 E67.91913
G4 P100
G1 X195.086 Y193.122 E68.18035
G4 P100
G1 X194.793 Y188.131 E68.44156
G4 P100
G1 X199.405 Y186.2 E68.70278
G4 P100
G1 X204.353 Y186.908 E68.96392
G4 P100
;TYPE:FILL
;TYPE:WALL-OUTER
;LAYER:3
;TYPE:SUPPORT
G1 F1500 E62.46392
G0 F2400 X194.793 Y188.131 Z9.1
G0 X194.793 Y188.131 Z6
G1 F1500 E68.96392
G1 F384.2 X189.213 Y187.396 Z10.236 E69.25128
G1 F300 X190.46 Y187.487 E69.3166
G1 X195.452 Y187.855 Z6 E69.65919
G4 P0
G1 F150 X195.452 Y187.855 Z6.3 E69.69054
G1 F374.4 X194.693 Y187.566 Z10.098 E69.85313
G1 F300 X195.848 Y187.324 E69.91478
G1 X200.47 Y186.352 Z6 E70.24148
G4 P0
G1 F150 X200.47 Y186.352 Z6.3 E70.27282
G1 F377.8 X199.677 Y187.694 Z10.095 E70.44302
G1 F300 X200.759 Y187.696 E70.49955
G1 X205.088 Y187.705 Z6 E70.81088
G4 P0
G1 F150 X205.088 Y187.705 Z6.3 E70.84222
G1 F393.1 X204.982 Y186.992 Z10.099 E70.9964
G1 F300 X205.463 Y187.633 E71.03827
G1 X207.387 Y190.197 Z6 E71.31013
G4 P0
G1 F150 X207.387 Y190.197 Z6.3 E71.34148
G1 F376.2 X210.68 Y186.582 Z10.19 E71.60184
G1 F300 X210.562 Y187.89 E71.67045
G1 X210.086 Y193.122 Z6 E72.02153
G4 P0
G1 F150 X210.086 Y193.122 Z6.3 E72.05287
G1 F392.7 X212.603 Y192.045 Z10.097 E72.2397
G1 F300 X211.533 Y192.26 E72.29672
G1 X207.25 Y193.122 Z6 E72.60963
G4 P0
G1 F150 X207.25 Y193.122 Z6.3 E72.64098
G1 F376.1 X207.828 Y194.915 Z10.094 E72.81751
G1 F300 X206.713 Y194.557 E72.87869
G1 X202.25 Y193.122 Z6 E73.20386
G4 P0
G1 F150 X202.25 Y193.122 Z6.3 E73.23521
G1 F376.1 X202.828 Y194.915 Z10.094 E73.41174
G1 F300 X201.713 Y194.557 E73.47292
G1 X197.25 Y193.122 Z6 E73.79809
G4 P0
G1 F150 X197.25 Y193.122 Z6.3 E73.82944
G1 F406.6 X197.755 Y195.079 Z10.094 E73.99515
G1 F300 X197.222 Y194.688 E74.02969
G1 X195.086 Y193.122 Z6 E74.28444
G4 P0
G1 F150 X195.086 Y193.122 Z6.3 E74.31578
G1 F351.6 X192.02 Y195.273 Z10.138 E74.55482
;TYPE:WALL-OUTER
G1 F300 X190.306 Y187.505 Z9 E74.97465
G4 P100
G1 X195.306 Y187.505 E75.23588
G4 P100
G1 X200.306 Y187.505 E75.4971
G4 P100
G1 X205.306 Y187.505 E75.75833
G4 P100
G1 X210.306 Y187.505 E76.01955
G4 P100
G1 X211.733 Y192.294 E76.28062
G4 P100
G1 X207.25 Y194.505 E76.54177
G4 P100
G1 X202.25 Y194.505 E76.803
G4 P100
G1 X197.25 Y194.505 E77.06422
G4 P100
G1 X192.25 Y194.505 E77.32545
G4 P100
;TYPE:SUPPORT
G0 F2400 X195.086 Y193.122 Z9.1
G0 X195.086 Y193.122 Z6
G1 F388.8 X190.819 Y193.348 Z10.143 E77.56537
G1 F300 X192.026 Y193.303 E77.62847
G1 X196.857 Y193.122 Z6 E77.9611
G4 P0
G1 F150 X196.857 Y193.122 Z6.3 E77.99245
G1 F376.5 X196.258 Y193.36 Z10.099 E78.15286
G1 F300 X197.377 Y193.313 E78.21137
G1 X201.857 Y193.122 Z6 E78.52877
G4 P0
G1 F150 X201.857 Y193.122 Z6.3 E78.56012
G1 F376.5 X201.258 Y193.36 Z10.099 E78.72053
G1 F300 X202.377 Y193.313 E78.77904
G1 X206.857 Y193.122 Z6 E79.09644
G4 P0
G1 F150 X206.857 Y193.122 Z6.3 E79.12779
G1 F375.6 X207.008 Y193.919 Z10.099 E79.28988
G1 F300 X206.71 Y192.769 E79.35194
G1 X205.514 Y188.167 Z6 E79.67993
G4 P0
G1 F150 X205.514 Y188.167 Z6.3 E79.71127
G1 F370.9 X205.392 Y189.043 Z10.097 E79.87603
G1 F300 X204.374 Y188.5 E79.93631
G1 X200.298 Y186.327 Z6 E80.25888
G4 P0
G1 F150 X200.298 Y186.327 Z6.3 E80.29023
G1 F365.5 X200.509 Y188.999 Z10.107 E80.48989
G1 F300 X199.377 Y189.012 E80.54903
G1 X194.848 Y189.065 Z6 E80.86846
G4 P0
G1 F150 X194.848 Y189.065 Z6.3 E80.89981
G1 F368 X195.358 Y188.573 Z10.099 E81.06442
;TYPE:WALL-OUTER
G1 F300 X191.857 Y193.303 Z9 E81.37718
G4 P100
G1 X196.857 Y193.303 E81.63841
G4 P100
G1 X201.857 Y193.303 E81.89963
G4 P100
G1 X206.857 Y193.303 E82.16086
G4 P100
G1 X204.963 Y188.676 E82.42206
G4 P100
G1 X199.963 Y188.676 E82.68329
G4 P100
G1 X194.978 Y189.057 E82.94449
G4 P100
;TYPE:FILL
;TYPE:WALL-OUTER
;LAYER:4
;TYPE:SUPPORT
G0 F2400 X190.52 Y188.274 Z12.1
G0 X190.52 Y188.274 Z9
G1 F388 X187.316 Y189.165 Z13.106 E83.15794
G1 F300 X188.502 Y188.833 E83.22229
G1 X193.25 Y187.505 Z9 E83.5575
G4 P0
G1 F150 X193.25 Y187.505 Z9.3 E83.58884
G1 F374.3 X192.65 Y189.169 Z13.094 E83.76411
G1 F300 X193.768 Y189.097 E83.82264
G1 X198.243 Y188.807 Z9 E84.13988
G4 P0
G1 F150 X198.243 Y188.807 Z9.3 E84.17123
G1 F376.4 X197.652 Y188.951 Z13.099 E84.33144
G1 F300 X198.771 Y188.896 E84.38997
G1 X203.25 Y188.676 Z9 E84.70739
G4 P0
G1 F150 X203.25 Y188.676 Z9.3 E84.73873
G1 F375.4 X202.673 Y189.111 Z13.099 E84.90019
G1 F300 X203.788 Y188.79 E84.96081
G1 X208.25 Y187.505 Z9 E85.28441
G4 P0
G1 F150 X208.25 Y187.505 Z9.3 E85.31575
G1 F369.6 X207.797 Y188.765 Z13.094 E85.48637
G1 F300 X208.554 Y189.372 E85.53707
G1 X211.586 Y191.803 Z9 E85.83198
G4 P0
G1 F150 X211.586 Y191.803 Z9.3 E85.86332
G1 F393.7 X213.194 Y191.169 Z13.095 E86.02933
G1 F300 X212.347 Y191.667 E86.08066
G1 X208.958 Y193.662 Z9 E86.37728
G4 P0
G1 F150 X208.958 Y193.662 Z9.3 E86.40863
G1 F381.7 X210.802 Y196.39 Z13.11 E86.61539
G1 F300 X209.653 Y196.013 E86.67857
G1 X205.055 Y194.505 Z9 E87.01027
G4 P0
G1 F150 X205.055 Y194.505 Z9.3 E87.04161
G1 F376.1 X205.633 Y196.298 Z13.094 E87.21814
G1 F300 X204.518 Y195.94 E87.27933
G1 X200.055 Y194.505 Z9 E87.6045
G4 P0
G1 F150 X200.055 Y194.505 Z9.3 E87.63585
G1 F376.1 X200.633 Y196.298 Z13.094 E87.81238
G1 F300 X199.518 Y195.94 E87.87356
G1 X195.055 Y194.505 Z9 E88.19873
G4 P0
G1 F150 X195.055 Y194.505 Z9.3 E88.23008
G1 F399.1 X195.593 Y196.404 Z13.094 E88.39801
G1 F300 X194.925 Y196.025 E88.43814
G1 X192.25 Y194.505 Z9 E88.70569
G4 P0
G1 F150 X192.25 Y194.505 Z9.3 E88.73704
G1 F355.4 X189.873 Y196.677 Z13.114 E88.95719
;TYPE:WALL-OUTER
G1 F300 X188.25 Y188.905 Z12 E89.37606
G4 P100
G1 X193.25 Y188.905 E89.63729
G4 P100
G1 X198.25 Y188.905 E89.89851
G4 P100
G1 X203.25 Y188.905 E90.15973
G4 P100
G1 X208.25 Y188.905 E90.42096
G4 P100
G1 X212.505 Y191.53 E90.68216
G4 P100
G1 X210.055 Y195.888 E90.94336
G4 P100
G1 X205.055 Y195.888 E91.20458
G4 P100
G1 X200.055 Y195.888 E91.46581
G4 P100
G1 X195.055 Y195.888 E91.72703
G4 P100
G1 X190.055 Y195.888 E91.98825
G4 P100
;TYPE:SUPPORT
G0 F2400 X192.134 Y194.086 Z12.1
G0 X192.134 Y194.086 Z9
G1 F389.2 X188.964 Y194.822 Z13.106 E92.19923
G1 F300 X190.154 Y194.759 E92.26149
