;FLAVOR:Marlin
;TIME:6666
;Filament used: 0m
;Layer height: 0.1

;Generated with Cura_SteamEngine master
M190 S60
M104 S215
M109 S215
M82 ; absolute extrusion mode
G21 ;metric values
G90 ;absolute positioning
M82 ;set extruder to absolute mode
M107 ;start with the fan off
G28 X0 Y0 ;move X/Y to min endstops
G28 Z0 ;move Z to min endstops
G1 Z15.0 F9000 ;move the platform down 15mm
G92 E0 ;zero the extruded length
G1 F200 E3 ;extrude 3mm of feed stock
G92 E0 ;zero the extruded length again
G1 F9000
;Put printing message on LCD screen
M117 Printing...
;LAYER_COUNT:58
;LAYER:0
M107
G0 F3600 X83.623 Y92.349 Z0.3
;TYPE:SKIRT
G1 F1800 X84.222 Y91.834 E0.03941
G1 X84.87 Y91.383 E0.0788
G1 X85.561 Y90.999 E0.11824
G1 X86.286 Y90.687 E0.15762
G1 X87.039 Y90.45 E0.197
G1 X87.813 Y90.291 E0.23642
G1 X88.598 Y90.21 E0.27579
G1 X89 Y90.2 E0.29586
G1 X90.314 Y90.2 E0.36141
G1 X90.883 Y89.654 E0.40075
G1 X91.596 Y89.067 E0.44683
G1 X92.231 Y88.597 E0.48624
G1 X92.854 Y88.222 E0.52252
G1 X94.103 Y87.549 E0.59331
G1 X94.816 Y87.21 E0.63269
G1 X95.521 Y86.957 E0.67006
G1 X96.41 Y86.685 E0.71644
G1 X97.562 Y86.426 E0.77535
G1 X98.443 Y86.297 E0.81977
G1 X99.229 Y86.223 E0.85916
G1 X99.639 Y86.215 E0.87962
G1 X100.58 Y86.223 E0.92657
G1 X101.369 Y86.27 E0.966
G1 X102.069 Y86.38 E1.00135
G1 X103.416 Y86.654 E1.06993
G1 X104.181 Y86.85 E1.10933
G1 X104.842 Y87.089 E1.1444
G1 X105.693 Y87.441 E1.19034
G1 X106.407 Y87.78 E1.22978
G1 X106.768 Y87.987 E1.25054
G1 X107.558 Y88.468 E1.29668
G1 X108.211 Y88.912 E1.33608
G1 X108.728 Y89.34 E1.36956
G1 X109.681 Y90.2 E1.4336
G1 X111 Y90.2 E1.49941
G1 X111.789 Y90.24 E1.53882
G1 X112.569 Y90.359 E1.57819
G1 X113.334 Y90.557 E1.61761
G1 X114.074 Y90.831 E1.65698
G1 X114.783 Y91.179 E1.69638
G1 X115.454 Y91.597 E1.73582
G1 X116.078 Y92.08 E1.77519
G1 X116.651 Y92.623 E1.81458
G1 X117.166 Y93.222 E1.85399
G1 X117.617 Y93.87 E1.89337
G1 X118.001 Y94.561 E1.93281
G1 X118.313 Y95.286 E1.97219
G1 X118.55 Y96.039 E2.01158
G1 X118.709 Y96.813 E2.051
G1 X118.79 Y97.598 E2.09037
G1 X118.8 Y98 E2.11043
G1 X118.8 Y102 E2.30999
G1 X118.76 Y102.789 E2.34941
G1 X118.641 Y103.569 E2.38877
G1 X118.443 Y104.334 E2.42819
G1 X118.169 Y105.074 E2.46756
G1 X117.821 Y105.783 E2.50697
G1 X117.403 Y106.454 E2.54641
G1 X116.92 Y107.078 E2.58577
G1 X116.377 Y107.651 E2.62516
G1 X115.778 Y108.166 E2.66457
G1 X115.13 Y108.617 E2.70396
G1 X114.439 Y109.001 E2.7434
G1 X113.714 Y109.313 E2.78277
G1 X112.961 Y109.55 E2.82216
G1 X112.187 Y109.709 E2.86158
G1 X111.402 Y109.79 E2.90095
G1 X111 Y109.8 E2.92101
G1 X109.664 Y109.8 E2.98767
G1 X109.447 Y110.027 E3.00333
G1 X108.873 Y110.569 E3.04272
G1 X108.286 Y111.023 E3.07974
G1 X107.53 Y111.552 E3.12578
G1 X106.861 Y111.971 E3.16516
G1 X106.212 Y112.295 E3.20135
G1 X104.907 Y112.872 E3.27253
G1 X104.17 Y113.154 E3.3119
G1 X103.143 Y113.413 E3.36475
G1 X101.763 Y113.663 E3.43471
G1 X100.98 Y113.764 E3.4741
G1 X100.317 Y113.788 E3.5072
G1 X99.486 Y113.782 E3.54866
G1 X98.697 Y113.736 E3.58809
G1 X98.059 Y113.64 E3.62028
G1 X96.711 Y113.379 E3.68878
G1 X95.945 Y113.19 E3.72814
G1 X95.288 Y112.96 E3.76287
G1 X94.431 Y112.616 E3.80894
G1 X93.714 Y112.285 E3.84834
G1 X93.344 Y112.077 E3.86952
G1 X92.552 Y111.605 E3.91552
G1 X91.895 Y111.167 E3.95491
G1 X91.342 Y110.716 E3.99051
G1 X90.319 Y109.8 E4.05902
G1 X89 Y109.8 E4.12482
G1 X88.211 Y109.76 E4.16424
G1 X87.431 Y109.641 E4.2036
G1 X86.666 Y109.443 E4.24303
G1 X85.926 Y109.169 E4.28239
G1 X85.217 Y108.821 E4.3218
G1 X84.546 Y108.403 E4.36124
G1 X83.922 Y107.92 E4.40061
G1 X83.349 Y107.377 E4.43999
G1 X82.834 Y106.778 E4.4794
G1 X82.383 Y106.13 E4.51879
G1 X81.999 Y105.439 E4.55823
G1 X81.687 Y104.714 E4.59761
G1 X81.45 Y103.961 E4.63699
G1 X81.291 Y103.187 E4.67641
G1 X81.21 Y102.402 E4.71578
G1 X81.2 Y102 E4.73585
G1 X81.2 Y98 E4.93541
G1 X81.24 Y97.211 E4.97482
G1 X81.359 Y96.431 E5.01418
G1 X81.557 Y95.666 E5.05361
G1 X81.831 Y94.926 E5.09298
G1 X82.179 Y94.217 E5.13238
G1 X82.597 Y93.546 E5.17182
G1 X83.08 Y92.922 E5.21119
G1 X83.623 Y92.349 E5.25057
G0 F3600 X84.016 Y92.53
G1 F1800 X84.611 Y92.042 E5.28896
G1 X85.253 Y91.619 E5.32732
G1 X85.936 Y91.264 E5.36572
G1 X86.651 Y90.983 E5.40405
G1 X87.393 Y90.777 E5.44247
G1 X88.151 Y90.649 E5.48082
G1 X89 Y90.6 E5.52325
G1 X90.474 Y90.6 E5.59679
G1 X91.138 Y89.963 E5.64269
G1 X91.851 Y89.376 E5.68877
G1 X92.469 Y88.919 E5.72712
G1 X93.044 Y88.575 E5.76055
G1 X94.293 Y87.902 E5.83133
G1 X94.988 Y87.572 E5.86971
G1 X95.638 Y87.34 E5.90414
G1 X96.527 Y87.068 E5.95053
G1 X97.62 Y86.822 E6.00642
G1 X98.501 Y86.693 E6.05084
G1 X99.636 Y86.615 E6.1076
G1 X100.577 Y86.623 E6.15455
G1 X101.345 Y86.67 E6.19294
G1 X101.989 Y86.772 E6.22547
G1 X103.336 Y87.046 E6.29405
G1 X104.081 Y87.238 E6.33243
G1 X104.689 Y87.459 E6.3647
G1 X105.54 Y87.811 E6.41065
G1 X106.56 Y88.328 E6.4677
G1 X107.35 Y88.809 E6.51384
G1 X107.986 Y89.243 E6.55226
G1 X108.46 Y89.637 E6.58301
G1 X109.456 Y90.536 E6.64995
G1 X109.52 Y90.6 E6.65446
G1 X111 Y90.6 E6.7283
G1 X111.768 Y90.64 E6.76667
G1 X112.528 Y90.759 E6.80505
G1 X113.271 Y90.957 E6.84341
G1 X113.99 Y91.231 E6.8818
G1 X114.676 Y91.578 E6.92015
G1 X115.323 Y91.994 E6.95853
G1 X115.923 Y92.475 E6.99689
G1 X116.47 Y93.016 E7.03527
G1 X116.958 Y93.611 E7.07367
G1 X117.381 Y94.253 E7.11202
G1 X117.736 Y94.936 E7.15043
G1 X118.017 Y95.651 E7.18875
G1 X118.223 Y96.393 E7.22717
G1 X118.351 Y97.151 E7.26552
G1 X118.4 Y98 E7.30795
G1 X118.4 Y102 E7.50751
G1 X118.36 Y102.768 E7.54588
G1 X118.241 Y103.528 E7.58426
G1 X118.043 Y104.271 E7.62262
G1 X117.769 Y104.99 E7.66101
G1 X117.422 Y105.676 E7.69936
G1 X117.006 Y106.323 E7.73774
G1 X116.525 Y106.923 E7.7761
G1 X115.984 Y107.47 E7.81449
G1 X115.389 Y107.958 E7.85288
G1 X114.747 Y108.381 E7.89123
G1 X114.064 Y108.736 E7.92964
G1 X113.349 Y109.017 E7.96796
G1 X112.607 Y109.223 E8.00638
G1 X111.849 Y109.351 E8.04473
G1 X111 Y109.4 E8.08716
G1 X109.494 Y109.4 E8.1623
G1 X109.158 Y109.751 E8.18654
G1 X108.598 Y110.278 E8.2249
G1 X108.057 Y110.695 E8.25898
G1 X107.301 Y111.224 E8.30501
G1 X106.648 Y111.632 E8.34343
G1 X106.05 Y111.929 E8.37674
G1 X104.745 Y112.506 E8.44793
G1 X104.027 Y112.78 E8.48627
G1 X103.072 Y113.019 E8.53538
G1 X101.692 Y113.269 E8.60535
G1 X100.929 Y113.367 E8.64373
G1 X100.32 Y113.388 E8.67413
G1 X99.489 Y113.382 E8.71559
G1 X98.721 Y113.336 E8.75398
G1 X98.135 Y113.247 E8.78355
G1 X96.787 Y112.986 E8.85205
G1 X96.041 Y112.801 E8.89039
G1 X95.437 Y112.588 E8.92235
G1 X94.58 Y112.244 E8.96842
G1 X93.549 Y111.734 E9.0258
G1 X92.757 Y111.262 E9.0718
G1 X92.117 Y110.834 E9.11021
G1 X91.608 Y110.418 E9.14301
G1 X90.565 Y109.484 E9.21286
G1 X90.481 Y109.4 E9.21879
G1 X89 Y109.4 E9.29267
G1 X88.232 Y109.36 E9.33104
G1 X87.472 Y109.241 E9.36942
G1 X86.729 Y109.043 E9.40778
G1 X86.01 Y108.769 E9.44617
G1 X85.324 Y108.422 E9.48452
G1 X84.677 Y108.006 E9.5229
G1 X84.077 Y107.525 E9.56126
G1 X83.53 Y106.984 E9.59965
G1 X83.042 Y106.389 E9.63804
G1 X82.619 Y105.747 E9.6764
G1 X82.264 Y105.064 E9.7148
G1 X81.983 Y104.349 E9.75313
G1 X81.777 Y103.607 E9.79154
G1 X81.649 Y102.849 E9.8299
G1 X81.6 Y102 E9.87232
G1 X81.6 Y98 E10.07188
G1 X81.64 Y97.232 E10.11025
G1 X81.759 Y96.472 E10.14863
G1 X81.957 Y95.729 E10.18699
G1 X82.231 Y95.01 E10.22538
G1 X82.578 Y94.324 E10.26373
G1 X82.994 Y93.677 E10.30211
G1 X83.475 Y93.077 E10.34048
G1 X84.016 Y92.53 E10.37886
G0 F3600 X84.408 Y92.716
G1 F1800 X84.998 Y92.257 E10.41615
G1 X85.634 Y91.862 E10.4535
G1 X86.308 Y91.538 E10.49081
G1 X87.013 Y91.288 E10.52813
G1 X87.741 Y91.114 E10.56547
G1 X88.483 Y91.019 E10.6028
G1 X89 Y91 E10.62861
G1 X90.633 Y91 E10.71008
G1 X91.392 Y90.272 E10.76255
G1 X92.105 Y89.685 E10.80862
G1 X92.707 Y89.241 E10.84594
G1 X93.234 Y88.927 E10.87655
G1 X94.483 Y88.254 E10.94733
G1 X95.159 Y87.935 E10.98462
G1 X95.755 Y87.722 E11.0162
G1 X96.644 Y87.45 E11.06258
G1 X97.678 Y87.218 E11.11545
G1 X98.559 Y87.089 E11.15987
G1 X99.633 Y87.015 E11.21358
G1 X100.574 Y87.023 E11.26053
G1 X101.32 Y87.07 E11.29782
G1 X101.909 Y87.163 E11.32757
G1 X103.256 Y87.437 E11.39615
G1 X103.98 Y87.626 E11.43348
G1 X104.537 Y87.829 E11.46306
G1 X105.388 Y88.181 E11.509
G1 X106.352 Y88.67 E11.56293
G1 X107.142 Y89.151 E11.60907
G1 X107.76 Y89.574 E11.64644
G1 X108.192 Y89.934 E11.67449
G1 X109.188 Y90.833 E11.74143
G1 X109.354 Y91 E11.75318
G1 X111 Y91 E11.8353
G1 X111.747 Y91.04 E11.87262
G1 X112.485 Y91.159 E11.90991
G1 X113.207 Y91.357 E11.94726
G1 X113.903 Y91.63 E11.98456
G1 X114.566 Y91.977 E12.0219
G1 X115.189 Y92.392 E12.05924
G1 X115.763 Y92.871 E12.09654
G1 X116.284 Y93.408 E12.13387
G1 X116.743 Y93.998 E12.17116
G1 X117.138 Y94.634 E12.20851
G1 X117.462 Y95.308 E12.24582
G1 X117.712 Y96.013 E12.28314
G1 X117.886 Y96.741 E12.32049
G1 X117.981 Y97.483 E12.35781
G1 X118 Y98 E12.38362
G1 X118 Y102 E12.58318
G1 X117.96 Y102.747 E12.6205
G1 X117.841 Y103.485 E12.65779
G1 X117.643 Y104.207 E12.69514
G1 X117.37 Y104.903 E12.73244
G1 X117.023 Y105.566 E12.76978
G1 X116.608 Y106.189 E12.80712
G1 X116.129 Y106.763 E12.84442
G1 X115.592 Y107.284 E12.88175
G1 X115.002 Y107.743 E12.91904
G1 X114.366 Y108.138 E12.9564
G1 X113.692 Y108.462 E12.9937
G1 X112.987 Y108.712 E13.03102
G1 X112.259 Y108.886 E13.06837
G1 X111.517 Y108.981 E13.10569
G1 X111 Y109 E13.1315
G1 X109.323 Y109 E13.21516
G1 X108.869 Y109.474 E13.24791
G1 X108.324 Y109.986 E13.28522
G1 X107.827 Y110.367 E13.31646
G1 X107.071 Y110.896 E13.36249
G1 X106.436 Y111.292 E13.39983
G1 X105.889 Y111.563 E13.43028
G1 X104.584 Y112.14 E13.50147
G1 X103.884 Y112.406 E13.53883
G1 X103.001 Y112.626 E13.58423
G1 X101.621 Y112.876 E13.6542
G1 X100.879 Y112.97 E13.69151
G1 X100.322 Y112.988 E13.71932
G1 X99.491 Y112.982 E13.76078
G1 X98.745 Y112.936 E13.79807
G1 X98.211 Y112.854 E13.82502
G1 X96.863 Y112.593 E13.89352
G1 X96.138 Y112.412 E13.9308
G1 X95.586 Y112.217 E13.96001
G1 X94.729 Y111.873 E14.00608
G1 X93.753 Y111.39 E14.06041
G1 X92.961 Y110.918 E14.10641
G1 X92.34 Y110.501 E14.14373
G1 X91.875 Y110.12 E14.17372
G1 X90.832 Y109.186 E14.24357
G1 X90.645 Y109 E14.25673
G1 X89 Y109 E14.33879
G1 X88.253 Y108.96 E14.37612
G1 X87.515 Y108.841 E14.41341
G1 X86.793 Y108.643 E14.45076
G1 X86.097 Y108.37 E14.48806
G1 X85.434 Y108.023 E14.52539
G1 X84.811 Y107.608 E14.56274
G1 X84.237 Y107.129 E14.60004
G1 X83.716 Y106.592 E14.63737
G1 X83.257 Y106.002 E14.67466
G1 X82.862 Y105.366 E14.71201
G1 X82.538 Y104.692 E14.74932
G1 X82.288 Y103.987 E14.78664
G1 X82.114 Y103.259 E14.82398
G1 X82.019 Y102.517 E14.8613
G1 X82 Y102 E14.88712
G1 X82 Y98 E15.08668
G1 X82.04 Y97.253 E15.124
G1 X82.159 Y96.515 E15.16129
G1 X82.357 Y95.793 E15.19864
G1 X82.63 Y95.097 E15.23594
G1 X82.977 Y94.434 E15.27328
G1 X83.392 Y93.811 E15.31062
G1 X83.871 Y93.237 E15.34792
G1 X84.408 Y92.716 E15.38525
G0 F3600 X84.265 Y93.402
G1 F1800 X84.799 Y92.909 E15.42151
G1 X85.384 Y92.479 E15.45773
G1 X86.013 Y92.115 E15.49399
G1 X86.678 Y91.822 E15.53024
G1 X87.371 Y91.604 E15.56648
G1 X88.083 Y91.464 E15.60269
G1 X89 Y91.4 E15.64855
G1 X90.81 Y91.4 E15.73885
G1 X90.926 Y91.271 E15.7475
G1 X91.646 Y90.581 E15.79726
G1 X92.359 Y89.994 E15.84333
G1 X92.944 Y89.564 E15.87955
G1 X93.423 Y89.279 E15.90736
G1 X94.672 Y88.606 E15.97814
G1 X95.33 Y88.297 E16.01441
G1 X95.872 Y88.105 E16.0431
G1 X96.761 Y87.833 E16.08948
G1 X97.736 Y87.614 E16.13934
G1 X98.617 Y87.485 E16.18376
G1 X99.629 Y87.415 E16.23437
G1 X100.57 Y87.423 E16.28132
G1 X101.295 Y87.469 E16.31756
G1 X101.83 Y87.555 E16.34459
G1 X103.177 Y87.829 E16.41317
G1 X103.879 Y88.013 E16.44938
G1 X104.384 Y88.198 E16.47621
G1 X105.235 Y88.55 E16.52215
G1 X106.144 Y89.012 E16.57303
G1 X106.934 Y89.493 E16.61917
G1 X107.533 Y89.904 E16.65541
G1 X107.924 Y90.231 E16.68084
G1 X108.92 Y91.13 E16.74778
G1 X109.188 Y91.4 E16.76676
G1 X111 Y91.4 E16.85716
G1 X111.725 Y91.44 E16.89339
G1 X112.442 Y91.559 E16.92965
G1 X113.141 Y91.757 E16.96589
G1 X113.814 Y92.03 E17.00213
G1 X114.453 Y92.375 E17.03836
G1 X115.05 Y92.789 E17.0746
G1 X115.598 Y93.265 E17.11081
G1 X116.091 Y93.799 E17.14707
G1 X116.521 Y94.384 E17.1833
G1 X116.885 Y95.013 E17.21955
G1 X117.178 Y95.678 E17.25581
G1 X117.396 Y96.371 E17.29205
G1 X117.536 Y97.083 E17.32825
G1 X117.6 Y98 E17.37411
G1 X117.6 Y102 E17.57367
G1 X117.56 Y102.725 E17.6099
G1 X117.441 Y103.442 E17.64616
G1 X117.243 Y104.141 E17.68241
G1 X116.97 Y104.814 E17.71864
G1 X116.625 Y105.453 E17.75487
G1 X116.211 Y106.05 E17.79111
G1 X115.735 Y106.598 E17.82733
G1 X115.201 Y107.091 E17.86359
G1 X114.616 Y107.521 E17.89981
G1 X113.987 Y107.885 E17.93607
G1 X113.322 Y108.178 E17.97232
G1 X112.629 Y108.396 E18.00856
G1 X111.917 Y108.536 E18.04477
G1 X111 Y108.6 E18.09063
G1 X109.152 Y108.6 E18.18282
G1 X108.58 Y109.197 E18.22407
G1 X108.05 Y109.693 E18.26029
G1 X107.598 Y110.04 E18.28872
G1 X106.842 Y110.569 E18.33475
G1 X106.225 Y110.952 E18.37098
G1 X105.727 Y111.197 E18.39867
G1 X104.422 Y111.774 E18.46986
G1 X103.742 Y112.031 E18.50612
G1 X102.93 Y112.232 E18.54786
G1 X101.55 Y112.482 E18.61783
G1 X100.829 Y112.572 E18.65408
G1 X100.325 Y112.588 E18.67923
G1 X99.494 Y112.582 E18.72069
G1 X98.769 Y112.537 E18.75693
G1 X98.287 Y112.462 E18.78127
G1 X96.939 Y112.201 E18.84977
G1 X96.235 Y112.024 E18.88599
G1 X95.735 Y111.846 E18.91247
G1 X94.878 Y111.502 E18.95854
G1 X93.958 Y111.047 E19.00974
G1 X93.166 Y110.575 E19.05574
G1 X92.564 Y110.169 E19.09197
G1 X92.142 Y109.822 E19.11923
G1 X91.099 Y108.888 E19.18907
G1 X90.811 Y108.6 E19.20939
G1 X89 Y108.6 E19.29975
G1 X88.275 Y108.56 E19.33597
G1 X87.558 Y108.441 E19.37223
G1 X86.859 Y108.243 E19.40848
G1 X86.186 Y107.97 E19.44471
G1 X85.547 Y107.625 E19.48094
G1 X84.95 Y107.211 E19.51719
G1 X84.402 Y106.735 E19.5534
G1 X83.909 Y106.201 E19.58966
G1 X83.479 Y105.616 E19.62588
G1 X83.115 Y104.987 E19.66214
G1 X82.822 Y104.322 E19.69839
G1 X82.604 Y103.629 E19.73464
G1 X82.464 Y102.917 E19.77084
G1 X82.4 Y102 E19.8167
G1 X82.4 Y98 E20.01626
G1 X82.44 Y97.275 E20.05248
G1 X82.559 Y96.558 E20.08875
G1 X82.757 Y95.859 E20.12499
G1 X83.03 Y95.186 E20.16122
G1 X83.375 Y94.547 E20.19745
G1 X83.789 Y93.95 E20.2337
G1 X84.265 Y93.402 E20.26991
G0 F3600 X84.659 Y93.573
G1 F1800 X85.189 Y93.109 E20.30506
G1 X85.768 Y92.709 E20.34017
G1 X86.389 Y92.377 E20.3753
G1 X87.043 Y92.117 E20.41041
G1 X87.723 Y91.933 E20.44555
G1 X88.419 Y91.827 E20.48068
G1 X89 Y91.8 E20.5097
G1 X90.989 Y91.8 E20.60893
G1 X91.224 Y91.538 E20.62649
G1 X91.9 Y90.889 E20.67324
G1 X92.613 Y90.302 E20.71931
G1 X93.181 Y89.887 E20.75441
G1 X93.613 Y89.631 E20.77946
G1 X94.862 Y88.958 E20.85025
G1 X95.5 Y88.66 E20.88538
G1 X95.989 Y88.487 E20.91125
G1 X96.878 Y88.215 E20.95764
G1 X97.794 Y88.009 E21.00448
G1 X98.675 Y87.88 E21.0489
G1 X99.626 Y87.815 E21.09646
G1 X100.567 Y87.823 E21.1434
G1 X101.269 Y87.869 E21.1785
G1 X101.75 Y87.947 E21.20281
G1 X103.097 Y88.221 E21.27139
G1 X103.778 Y88.401 E21.30653
G1 X104.231 Y88.568 E21.33062
G1 X105.082 Y88.92 E21.37657
G1 X105.936 Y89.353 E21.42434
G1 X106.726 Y89.834 E21.47048
G1 X107.306 Y90.234 E21.50563
G1 X107.656 Y90.528 E21.52843
G1 X108.652 Y91.427 E21.59537
G1 X109.021 Y91.8 E21.62155
G1 X111 Y91.8 E21.72028
G1 X111.703 Y91.84 E21.75541
G1 X112.397 Y91.959 E21.79054
G1 X113.072 Y92.157 E21.82564
G1 X113.721 Y92.429 E21.86074
G1 X114.335 Y92.774 E21.89588
G1 X114.906 Y93.185 E21.93098
G1 X115.427 Y93.659 E21.96612
G1 X115.891 Y94.189 E22.00126
G1 X116.291 Y94.768 E22.03637
G1 X116.623 Y95.389 E22.0715
G1 X116.883 Y96.043 E22.10662
G1 X117.067 Y96.723 E22.14176
G1 X117.173 Y97.419 E22.17689
G1 X117.2 Y98 E22.2059
G1 X117.2 Y102 E22.40546
G1 X117.16 Y102.703 E22.44059
G1 X117.041 Y103.397 E22.47572
G1 X116.843 Y104.072 E22.51082
G1 X116.571 Y104.721 E22.54593
G1 X116.226 Y105.335 E22.58106
G1 X115.815 Y105.906 E22.61616
G1 X115.341 Y106.427 E22.6513
G1 X114.811 Y106.891 E22.68645
G1 X114.232 Y107.291 E22.72155
G1 X113.611 Y107.623 E22.75669
G1 X112.957 Y107.883 E22.7918
G1 X112.277 Y108.067 E22.82694
G1 X111.581 Y108.173 E22.86207
G1 X111 Y108.2 E22.89109
G1 X108.982 Y108.2 E22.99176
G1 X108.292 Y108.92 E23.04152
G1 X107.777 Y109.4 E23.07664
G1 X107.369 Y109.712 E23.10226
G1 X106.613 Y110.241 E23.1483
